 
;*********************************************************************
;*            DMG MORI Software Solutions GmbH
;* Programmierer                         : brandauc
;* Datum                                 : Montag 04.01.2021 11:06:37
;* Maschine                              : DMF200_8_FD_S840D
;* Maschinennummer                       : 
;* PP-Version                            : 120.001.001
;* Aktuelle NX-Version                   : NX 1946.3121
;* Postprozessor freigegebene NX-Version : NX 1926
;*
;* Pfad : D:\_Projekte\03_Demos\xxxx\xxxx_xxxx-asm1-setup_1.prt
;*
;*********************************************************************
 
N10 DEF REAL _F_CUTTING, _F_ENGAGE, _F_RETRACT, _F_FIRSTCUT, _F_STEPOVER
N11 ;
N12 G40 G17 G710 G94 G90 G645
N13 CYCLE800()
N14 TRAFOOF
N15 TRANS
N16 M5
N17 SUPA G0 Z-1 D0
N18 G0 B0 C=DC(0)
N19 D1
N20 ; 
N21 ;Operation : ROUGH_TURN_OD_VTL
N22 ; 
N23 ;
N24 _F_CUTTING=0.3 _F_ENGAGE=0.3 _F_RETRACT=0.3 _F_FIRSTCUT=0.3 _F_STEPOVER=0.3
N25 ;
N26 T="V08-SWISS-TOOL"
N27 M6
N28 D1
N29 G18
N30 G521
N31 G18
N32 D1
N33 CYCLE800(0,"DREHEN",200,57,,,,0,-45,0,,,,-1,0,2)
N34 LIMS=700
N35 G96 S2=2000 M2=4
N36 G0 Y0
N37 X-600.0026 Z310
N38 X-397.4723
N39 Z220.0668 M7
N40 G1 Z219.2668 F=_F_ENGAGE
N41 Z10.7342 F=_F_FIRSTCUT
N42 X-397.9477 Z10.7341 F=_F_CUTTING
N43 X-400.4723 Z9.472
N44 X-401.6037 Z10.0377 F=_F_RETRACT
N45 G0 Z221.0343
N46 X-394.4723
N47 G1 Z220.2343 F=_F_ENGAGE
N48 Z10.731 F=_F_CUTTING
N49 G2 X-396.7485 Z10.7343 I-1.1381 K-194.7912
N50 G1 X-396.8713
N51 X-397.4723 Z10.7342
N52 X-398.6037 Z11.2999 F=_F_RETRACT
N53 G0 Z221.0343
N54 X-391.4723
N55 G1 Z220.2343 F=_F_ENGAGE
N56 Z10.7165 F=_F_CUTTING
N57 G2 X-394.4723 Z10.731 I-2.6381 K-194.7767
N58 G1 X-395.6037 Z11.2967 F=_F_RETRACT
N59 G0 Z221.0343
N60 X-388.4723
N61 G1 Z220.2343 F=_F_ENGAGE
N62 Z10.7006 F=_F_CUTTING
N63 G3 X-388.9706 Z10.6995 I-0.2492 K26.5472
N64 X-390.2644 Z10.7073 I0 K26.5483
N65 G1 X-390.2742 Z10.7074
N66 G2 X-391.4723 Z10.7165 I-3.2371 K-194.7677
N67 G1 X-392.6037 Z11.2821 F=_F_RETRACT
N68 G0 Z221.0343
N69 X-385.4723
N70 G1 Z220.2343 F=_F_ENGAGE
N71 Z10.7571 F=_F_CUTTING
N72 G3 X-388.4723 Z10.7006 I-1.7491 K26.4907
N73 G1 X-389.6037 Z11.2663 F=_F_RETRACT
N74 G0 Z221.0343
N75 X-382.4723
N76 G1 Z220.2343 F=_F_ENGAGE
N77 Z11.0239 F=_F_CUTTING
N78 G3 X-384.3042 Z10.8022 I-1.6947 K4.9978
N79 X-385.4723 Z10.7571 I-2.3332 K26.4456
N80 G1 X-386.6037 Z11.3228 F=_F_RETRACT
N81 G0 Z221.0343
N82 X-379.4723
N83 G1 Z220.2343 F=_F_ENGAGE
N84 Z11.8213 F=_F_CUTTING
N85 G3 X-382.4723 Z11.0239 I-3.1947 K4.2004
N86 G1 X-383.6037 Z11.5896 F=_F_RETRACT
N87 G0 Z221.0343
N88 X-376.4723
N89 G1 Z220.2343 F=_F_ENGAGE
N90 Z14.1274 F=_F_CUTTING
N91 G3 X-378.8247 Z12.0885 I-5.1173 K1.5934
N92 X-379.4723 Z11.8213 I-3.5185 K3.9332
N93 G1 X-380.6037 Z12.387 F=_F_RETRACT
N94 G0 Z221.0343
N95 X-373.4723
N96 G1 Z220.2343 F=_F_ENGAGE
N97 Z76.6936 F=_F_CUTTING
N98 G2 X-374.0043 Z75.8396 I98.5753 K-31.1744
N99 X-376.0804 Z69.0976 I21.3763 K-6.7421
N100 X-376.0603 Z68.4277 I22.4143 K0 F=_F_STEPOVER
N101 X-376.0927 Z64.2679 I534.5402 K-4.1598 F=_F_CUTTING
N102 X-376.0289 Z58.4282 I534.5564 K0 F=_F_STEPOVER
N103 G1 X-376.0179 Z43.9045
N104 X-376.0196 Z27.921 F=_F_CUTTING
N105 G2 X-376.0007 Z15.456 I8321.9698 K0.0797 F=_F_STEPOVER
N106 G3 X-376.4723 Z14.1274 I-5.3531 K0.2647 F=_F_CUTTING
N107 G1 X-377.6037 Z14.6931 F=_F_RETRACT
N108 G0 Z221.0343
N109 X-370.4723
N110 G1 Z220.2343 F=_F_ENGAGE
N111 Z81.0905 F=_F_CUTTING
N112 G2 X-373.4723 Z76.6936 I97.0753 K-35.5713
N113 G1 X-374.6037 Z77.2593 F=_F_RETRACT
N114 G0 Z221.0343
N115 X-367.4723
N116 G1 Z220.2343 F=_F_ENGAGE
N117 Z85.0626 F=_F_CUTTING
N118 G2 X-368.9127 Z83.1504 I283.2798 K-107.7871
N119 X-370.4723 Z81.0905 I96.2955 K-37.6312
N120 G1 X-371.6037 Z81.6562 F=_F_RETRACT
N121 G0 Z221.0343
N122 X-364.4723
N123 G1 Z220.2343 F=_F_ENGAGE
N124 Z88.9251 F=_F_CUTTING
N125 G2 X-367.4723 Z85.0626 I281.7798 K-111.6497
N126 G1 X-368.6037 Z85.6283 F=_F_RETRACT
N127 G0 Z221.0343
N128 X-361.4723
N129 G1 Z220.2343 F=_F_ENGAGE
N130 Z92.639 F=_F_CUTTING
N131 G2 X-364.4723 Z88.9251 I280.2798 K-115.3635
N132 G1 X-365.6037 Z89.4908 F=_F_RETRACT
N133 G0 Z221.0343
N134 X-358.4723
N135 G1 Z220.2343 F=_F_ENGAGE
N136 Z96.218 F=_F_CUTTING
N137 G2 X-361.4723 Z92.639 I278.7798 K-118.9425
N138 G1 X-362.6037 Z93.2047 F=_F_RETRACT
N139 G0 Z221.0343
N140 X-355.4723
N141 G1 Z220.2343 F=_F_ENGAGE
N142 Z99.6741 F=_F_CUTTING
N143 G2 X-358.4723 Z96.218 I277.2798 K-122.3986
N144 G1 X-359.6037 Z96.7837 F=_F_RETRACT
N145 G0 Z221.0343
N146 X-352.4723
N147 G1 Z220.2343 F=_F_ENGAGE
N148 Z103.0173 F=_F_CUTTING
N149 G2 X-355.4723 Z99.6741 I275.7798 K-125.7418
N150 G1 X-356.6037 Z100.2397 F=_F_RETRACT
N151 G0 Z221.0343
N152 X-349.4723
N153 G1 Z220.2343 F=_F_ENGAGE
N154 Z106.2565 F=_F_CUTTING
N155 G2 X-352.4723 Z103.0173 I274.2798 K-128.981
N156 G1 X-353.6037 Z103.583 F=_F_RETRACT
N157 G0 Z221.0343
N158 X-346.4723
N159 G1 Z220.2343 F=_F_ENGAGE
N160 Z109.3992 F=_F_CUTTING
N161 G2 X-349.4723 Z106.2565 I272.7798 K-132.1237
N162 G1 X-350.6037 Z106.8221 F=_F_RETRACT
N163 G0 Z221.0343
N164 X-343.4723
N165 G1 Z220.2343 F=_F_ENGAGE
N166 Z112.4523 F=_F_CUTTING
N167 G2 X-346.4723 Z109.3992 I271.2798 K-135.1768
N168 G1 X-347.6037 Z109.9649 F=_F_RETRACT
N169 G0 Z221.0343
N170 X-340.4723
N171 G1 Z220.2343 F=_F_ENGAGE
N172 Z115.4216 F=_F_CUTTING
N173 G2 X-343.4723 Z112.4523 I269.7798 K-138.1462
N174 G1 X-344.6037 Z113.018 F=_F_RETRACT
N175 G0 Z221.0343
N176 X-337.4723
N177 G1 Z220.2343 F=_F_ENGAGE
N178 Z118.3125 F=_F_CUTTING
N179 G2 X-340.4723 Z115.4216 I268.2798 K-141.037
N180 G1 X-341.6037 Z115.9873 F=_F_RETRACT
N181 G0 Z221.0343
N182 X-334.4723
N183 G1 Z220.2343 F=_F_ENGAGE
N184 Z121.1297 F=_F_CUTTING
N185 G2 X-337.4723 Z118.3125 I266.7798 K-143.8542
N186 G1 X-338.6037 Z118.8782 F=_F_RETRACT
N187 G0 Z221.0343
N188 X-331.4723
N189 G1 Z220.2343 F=_F_ENGAGE
N190 Z123.8954 F=_F_CUTTING
N191 G2 X-332.8886 Z122.5887 I407.1887 K-221.5075
N192 X-334.4723 Z121.1297 I265.9879 K-145.3132
N193 G1 X-335.6037 Z121.6954 F=_F_RETRACT
N194 G0 Z221.0343
N195 X-328.4723
N196 G1 Z220.2343 F=_F_ENGAGE
N197 Z126.6308 F=_F_CUTTING
N198 G2 X-331.4723 Z123.8954 I405.6887 K-224.2429
N199 G1 X-332.6037 Z124.4611 F=_F_RETRACT
N200 G0 Z221.0343
N201 X-325.4723
N202 G1 Z220.2343 F=_F_ENGAGE
N203 Z129.3233 F=_F_CUTTING
N204 G2 X-328.4723 Z126.6308 I404.1887 K-226.9355
N205 G1 X-329.6037 Z127.1965 F=_F_RETRACT
N206 G0 Z221.0343
N207 X-322.4723
N208 G1 Z220.2343 F=_F_ENGAGE
N209 Z131.9745 F=_F_CUTTING
N210 G2 X-325.4723 Z129.3233 I402.6887 K-229.5866
N211 G1 X-326.6037 Z129.889 F=_F_RETRACT
N212 G0 Z221.0343
N213 X-319.4723
N214 G1 Z220.2343 F=_F_ENGAGE
N215 Z134.5857 F=_F_CUTTING
N216 G2 X-322.4723 Z131.9745 I401.1887 K-232.1978
N217 G1 X-323.6037 Z132.5402 F=_F_RETRACT
N218 G0 Z221.0343
N219 X-316.4723
N220 G1 Z220.2343 F=_F_ENGAGE
N221 Z137.1583 F=_F_CUTTING
N222 G2 X-319.4723 Z134.5857 I399.6887 K-234.7704
N223 G1 X-320.6037 Z135.1514 F=_F_RETRACT
N224 G0 Z221.0343
N225 X-313.4723
N226 G1 Z220.2343 F=_F_ENGAGE
N227 Z139.6935 F=_F_CUTTING
N228 G2 X-316.4723 Z137.1583 I398.1887 K-237.3057
N229 G1 X-317.6037 Z137.724 F=_F_RETRACT
N230 G0 Z221.0343
N231 X-310.4723
N232 G1 Z220.2343 F=_F_ENGAGE
N233 Z142.1926 F=_F_CUTTING
N234 G2 X-313.4723 Z139.6935 I396.6887 K-239.8047
N235 G1 X-314.6037 Z140.2592 F=_F_RETRACT
N236 G0 Z221.0343
N237 X-307.4723
N238 G1 Z220.2343 F=_F_ENGAGE
N239 Z144.6565 F=_F_CUTTING
N240 G2 X-310.4723 Z142.1926 I395.1887 K-242.2687
N241 G1 X-311.6037 Z142.7582 F=_F_RETRACT
N242 G0 Z221.0343
N243 X-304.4723
N244 G1 Z220.2343 F=_F_ENGAGE
N245 Z147.0865 F=_F_CUTTING
N246 G2 X-307.4723 Z144.6565 I393.6887 K-244.6986
N247 G1 X-308.6037 Z145.2222 F=_F_RETRACT
N248 G0 Z221.0343
N249 X-301.4723
N250 G1 Z220.2343 F=_F_ENGAGE
N251 Z149.5294 F=_F_CUTTING
N252 G3 X-303.9272 Z147.5245 I-3025.1489 K1850.6788
N253 G2 X-304.4723 Z147.0865 I393.4161 K-245.1366
N254 G1 X-305.6037 Z147.6522 F=_F_RETRACT
N255 G0 Z221.0343
N256 X-298.4723
N257 G1 Z220.2343 F=_F_ENGAGE
N258 Z151.9835 F=_F_CUTTING
N259 G3 X-301.4723 Z149.5294 I-3026.6489 K1848.2247
N260 G1 X-302.6037 Z150.0951 F=_F_RETRACT
N261 G0 Z221.0343
N262 X-295.4723
N263 G1 Z220.2343 F=_F_ENGAGE
N264 Z154.4422 F=_F_CUTTING
N265 G3 X-298.4723 Z151.9835 I-3028.1489 K1845.766
N266 G1 X-299.6037 Z152.5492 F=_F_RETRACT
N267 G0 Z221.0343
N268 X-292.4723
N269 G1 Z220.2343 F=_F_ENGAGE
N270 Z156.9053 F=_F_CUTTING
N271 G3 X-295.4723 Z154.4422 I-3029.6489 K1843.3029
N272 G1 X-296.6037 Z155.0079 F=_F_RETRACT
N273 G0 Z221.0343
N274 X-289.4723
N275 G1 Z220.2343 F=_F_ENGAGE
N276 Z159.373 F=_F_CUTTING
N277 G3 X-292.4723 Z156.9053 I-3031.1489 K1840.8352
N278 G1 X-293.6037 Z157.471 F=_F_RETRACT
N279 G0 Z221.0343
N280 X-286.4723
N281 G1 Z220.2343 F=_F_ENGAGE
N282 Z161.8452 F=_F_CUTTING
N283 G3 X-289.4723 Z159.373 I-3032.6489 K1838.363
N284 G1 X-290.6037 Z159.9387 F=_F_RETRACT
N285 G0 Z221.0343
N286 X-283.4723
N287 G1 Z220.2343 F=_F_ENGAGE
N288 Z164.4057 F=_F_CUTTING
N289 G2 X-286.0947 Z162.1566 I5808.9879 K-3388.1149
N290 G3 X-286.4723 Z161.8452 I-3032.8377 K1838.0516
N291 G1 X-287.6037 Z162.4109 F=_F_RETRACT
N292 G0 Z221.0343
N293 X-280.4723
N294 G1 Z220.2343 F=_F_ENGAGE
N295 Z166.9762 F=_F_CUTTING
N296 G2 X-283.4723 Z164.4057 I5807.4879 K-3390.6854
N297 G1 X-284.6037 Z164.9714 F=_F_RETRACT
N298 G0 Z221.0343
N299 X-277.4723
N300 G1 Z220.2343 F=_F_ENGAGE
N301 Z169.5441 F=_F_CUTTING
N302 G2 X-280.4723 Z166.9762 I5805.9879 K-3393.2533
N303 G1 X-281.6037 Z167.5419 F=_F_RETRACT
N304 G0 Z221.0343
N305 X-274.4723
N306 G1 Z220.2343 F=_F_ENGAGE
N307 Z172.1499 F=_F_CUTTING
N308 G2 X-276.0042 Z170.7997 I54.4557 K-31.7854
N309 X-277.4723 Z169.5441 I5805.2539 K-3394.5089
N310 G1 X-278.6037 Z170.1098 F=_F_RETRACT
N311 G0 Z221.0343
N312 X-271.4723
N313 G1 Z220.2343 F=_F_ENGAGE
N314 Z174.5906 F=_F_CUTTING
N315 G2 X-274.4723 Z172.1499 I52.9557 K-34.2262
N316 G1 X-275.6037 Z172.7156 F=_F_RETRACT
N317 G0 Z221.0343
N318 X-268.4723
N319 G1 Z220.2343 F=_F_ENGAGE
N320 Z176.8069 F=_F_CUTTING
N321 G2 X-271.4723 Z174.5906 I51.4557 K-36.4424
N322 G1 X-272.6037 Z175.1563 F=_F_RETRACT
N323 G0 Z221.0343
N324 X-265.4723
N325 G1 Z220.2343 F=_F_ENGAGE
N326 Z178.9287 F=_F_CUTTING
N327 G2 X-268.06 Z177.0962 I65.6509 K-47.7277
N328 X-268.4723 Z176.8069 I51.2495 K-36.7318
N329 G1 X-269.6037 Z177.3725 F=_F_RETRACT
N330 G0 Z221.0343
N331 X-262.4723
N332 G1 Z220.2343 F=_F_ENGAGE
N333 Z180.9266 F=_F_CUTTING
N334 G2 X-265.4723 Z178.9287 I64.1509 K-49.7256
N335 G1 X-266.6037 Z179.4943 F=_F_RETRACT
N336 G0 Z221.0343
N337 X-259.4723
N338 G1 Z220.2343 F=_F_ENGAGE
N339 Z182.8037 F=_F_CUTTING
N340 G2 X-262.4723 Z180.9266 I62.6509 K-51.6027
N341 G1 X-263.6037 Z181.4922 F=_F_RETRACT
N342 G0 Z221.0343
N343 X-256.4723
N344 G1 Z220.2343 F=_F_ENGAGE
N345 Z184.5727 F=_F_CUTTING
N346 G2 X-259.4723 Z182.8037 I61.1509 K-53.3717
N347 G1 X-260.6037 Z183.3693 F=_F_RETRACT
N348 G0 Z221.0343
N349 X-253.4723
N350 G1 Z220.2343 F=_F_ENGAGE
N351 Z186.2611 F=_F_CUTTING
N352 G2 X-256.0791 Z184.7971 I30.7954 K-28.7295
N353 X-256.4723 Z184.5727 I60.9542 K-53.5961
N354 G1 X-257.6037 Z185.1384 F=_F_RETRACT
N355 G0 Z221.0343
N356 X-250.4723
N357 G1 Z220.2343 F=_F_ENGAGE
N358 Z187.7892 F=_F_CUTTING
N359 G2 X-253.4723 Z186.2611 I29.2954 K-30.2576
N360 G1 X-254.6037 Z186.8268 F=_F_RETRACT
N361 G0 Z221.0343
N362 X-247.4723
N363 G1 Z220.2343 F=_F_ENGAGE
N364 Z189.1727 F=_F_CUTTING
N365 G2 X-250.4723 Z187.7892 I27.7954 K-31.6411
N366 G1 X-251.6037 Z188.3548 F=_F_RETRACT
N367 G0 Z221.0343
N368 X-244.4723
N369 G1 Z220.2343 F=_F_ENGAGE
N370 Z190.4298 F=_F_CUTTING
N371 G2 X-247.4723 Z189.1727 I26.2954 K-32.8982
N372 G1 X-248.6037 Z189.7383 F=_F_RETRACT
N373 G0 Z221.0343
N374 X-241.4723
N375 G1 Z220.2343 F=_F_ENGAGE
N376 Z191.5746 F=_F_CUTTING
N377 G2 X-244.4723 Z190.4298 I24.7954 K-34.0431
N378 G1 X-245.6037 Z190.9955 F=_F_RETRACT
N379 G0 Z221.0343
N380 X-238.4723
N381 G1 Z220.2343 F=_F_ENGAGE
N382 Z192.6181 F=_F_CUTTING
N383 G2 X-241.4723 Z191.5746 I23.2954 K-35.0866
N384 G1 X-242.6037 Z192.1403 F=_F_RETRACT
N385 G0 Z221.0343
N386 X-235.4723
N387 G1 Z220.2343 F=_F_ENGAGE
N388 Z193.5691 F=_F_CUTTING
N389 G2 X-238.4723 Z192.6181 I21.7954 K-36.0375
N390 G1 X-239.6037 Z193.1838 F=_F_RETRACT
N391 G0 Z221.0343
N392 X-232.4723
N393 G1 Z220.2343 F=_F_ENGAGE
N394 Z194.4347 F=_F_CUTTING
N395 G2 X-235.4723 Z193.5691 I20.2954 K-36.9031
N396 G1 X-236.6037 Z194.1348 F=_F_RETRACT
N397 G0 Z221.0343
N398 X-229.4723
N399 G1 Z220.2343 F=_F_ENGAGE
N400 Z195.2232 F=_F_CUTTING
N401 G2 X-231.4781 Z194.7037 I22.1577 K-44.007
N402 X-232.4723 Z194.4347 I19.7983 K-37.1722
N403 G1 X-233.6037 Z195.0004 F=_F_RETRACT
N404 G0 Z221.0343
N405 X-226.4723
N406 G1 Z220.2343 F=_F_ENGAGE
N407 Z195.9469 F=_F_CUTTING
N408 G2 X-229.4723 Z195.2232 I20.6577 K-44.7307
N409 G1 X-230.6037 Z195.7889 F=_F_RETRACT
N410 G0 Z221.0343
N411 X-223.4723
N412 G1 Z220.2343 F=_F_ENGAGE
N413 Z196.6096 F=_F_CUTTING
N414 G2 X-226.4723 Z195.9469 I19.1577 K-45.3934
N415 G1 X-227.6037 Z196.5126 F=_F_RETRACT
N416 G0 Z221.0343
N417 X-220.4723
N418 G1 Z220.2343 F=_F_ENGAGE
N419 Z197.2139 F=_F_CUTTING
N420 G2 X-223.4723 Z196.6096 I17.6577 K-45.9976
N421 G1 X-224.6037 Z197.1753 F=_F_RETRACT
N422 G0 Z221.0343
N423 X-217.4723
N424 G1 Z220.2343 F=_F_ENGAGE
N425 Z197.762 F=_F_CUTTING
N426 G2 X-220.4723 Z197.2139 I16.1577 K-46.5457
N427 G1 X-221.6037 Z197.7795 F=_F_RETRACT
N428 G0 Z221.0343
N429 X-214.4723
N430 G1 Z220.2343 F=_F_ENGAGE
N431 Z198.2559 F=_F_CUTTING
N432 G2 X-217.4723 Z197.762 I14.6577 K-47.0397
N433 G1 X-218.6037 Z198.3276 F=_F_RETRACT
N434 G0 Z221.0343
N435 X-211.4723
N436 G1 Z220.2343 F=_F_ENGAGE
N437 Z198.6973 F=_F_CUTTING
N438 G2 X-214.4723 Z198.2559 I13.1577 K-47.4811
N439 G1 X-215.6037 Z198.8216 F=_F_RETRACT
N440 G0 Z221.0343
N441 X-208.4723
N442 G1 Z220.2343 F=_F_ENGAGE
N443 Z199.1453 F=_F_CUTTING
N444 X-211.1564 Z198.7408
N445 G2 X-211.4723 Z198.6973 I12.9997 K-47.5246
N446 G1 X-212.6037 Z199.263 F=_F_RETRACT
N447 G0 Z221.0343
N448 X-205.4723
N449 G1 Z220.2343 F=_F_ENGAGE
N450 Z199.5974 F=_F_CUTTING
N451 X-208.4723 Z199.1453
N452 X-209.6037 Z199.711 F=_F_RETRACT
N453 G0 Z221.0343
N454 X-202.4723
N455 G1 Z220.2343 F=_F_ENGAGE
N456 Z200.0495 F=_F_CUTTING
N457 X-205.4723 Z199.5974
N458 X-206.6037 Z200.1631 F=_F_RETRACT
N459 G0 Z221.0343
N460 X-199.4723
N461 G1 Z220.2343 F=_F_ENGAGE
N462 Z200.5083 F=_F_CUTTING
N463 G3 X-199.8196 Z200.4493 I-7.3122 K21.2155
N464 G1 X-202.4723 Z200.0495
N465 X-203.6037 Z200.6152 F=_F_RETRACT
N466 G0 Z221.0343
N467 X-196.4723
N468 G1 Z220.2343 F=_F_ENGAGE
N469 Z201.0862 F=_F_CUTTING
N470 G3 X-199.4723 Z200.5083 I-8.8122 K20.6376
N471 G1 X-200.6037 Z201.074 F=_F_RETRACT
N472 G0 Z221.0343
N473 X-193.4723
N474 G1 Z220.2343 F=_F_ENGAGE
N475 Z201.7934 F=_F_CUTTING
N476 G3 X-196.4723 Z201.0862 I-10.3122 K19.9305
N477 G1 X-197.6037 Z201.6519 F=_F_RETRACT
N478 G0 Z221.0343
N479 X-190.4723
N480 G1 Z220.2343 F=_F_ENGAGE
N481 Z202.6874 F=_F_CUTTING
N482 G3 X-191.3002 Z202.3939 I-3.8245 K4.9554
N483 X-193.4723 Z201.7934 I-11.3983 K19.3299
N484 G1 X-194.6037 Z202.359 F=_F_RETRACT
N485 G0 Z221.0343
N486 X-187.4723
N487 G1 Z220.2343 F=_F_ENGAGE
N488 Z214.9713 F=_F_CUTTING
N489 X-187.7078 Z214.8535
N490 X-189.4703 Z213.9725
N491 X-189.4674 Z210.1401 F=_F_STEPOVER
N492 X-187.4723 Z208.0487
N493 Z204.3993 F=_F_CUTTING
N494 G3 X-187.7098 Z204.1668 I-2.8905 K1.3299
N495 X-190.4723 Z202.6874 I-5.2058 K3.476
N496 G1 X-191.6037 Z203.2531 F=_F_RETRACT
N497 G0 Z208.0487
N498 X-189.0723
N499 G1 X-187.4723 F=_F_ENGAGE
N500 X-186.9301 Z207.4109 F=_F_STEPOVER
N501 X-186.9353 Z206.28 F=_F_CUTTING
N502 G3 X-187.161 Z204.8102 I-10.2204 K0.0456
N503 X-187.4723 Z204.3993 I-3.0461 K0.919
N504 G1 X-188.6037 Z204.965 F=_F_RETRACT
N505 G0 X-190.0703
N506 Z215.2343
N507 X-188.5462
N508 G1 X-186.9462 F=_F_ENGAGE
N509 X-187.4723 Z214.9713 F=_F_CUTTING
N510 X-188.6037 Z215.5369 F=_F_RETRACT
N511 G0 Z310
N512 X-600.0026
N513 M5
N514 D1
N515 CYCLE800()
N516 SUPA G0 Z-1 D0
N517 G0 B0 C=DC(0)
N518 D1
N519 M30
;
;=====================================================================
;                 Werkzeugliste                      
;=====================================================================
;
;---------------------------------------------------------------------
; Anzahl Werkzeuge: 1
;---------------------------------------------------------------------
 ;WZ-Nummer   WZ-Name                      WZ-L       WZ-D     SL      
;---------------------------------------------------------------------
; - T1        320080-6316-130HP-V08-HSKT63 L129.1038  Ø=0      0       
;=====================================================================
; Gesamtzeit: 0:28:18
;=====================================================================
