 
;*********************************************************************
;*            DMG MORI Software Solutions GmbH
;* Programmierer                         : brandauc
;* Datum                                 : Dienstag 05.01.2021 10:04:43
;* Maschine                              : DMF200_8_FD_S840D
;* Maschinennummer                       : 
;* PP-Version                            : 120.001.001
;* Aktuelle NX-Version                   : NX 1946.3121
;* Postprozessor freigegebene NX-Version : NX 1926
;*
;* Pfad : D:\_Projekte\03_Demos\xxxx\xxxx_xxxx-asm1-setup_1.prt
;*
;*********************************************************************
 
N10 DEF REAL _F_CUTTING, _F_ENGAGE, _F_RETRACT, _F_FIRSTCUT, _F_STEPOVER
N11 ;
N12 G40 G17 G710 G94 G90 G645
N13 CYCLE800()
N14 TRAFOOF
N15 TRANS
N16 M5
N17 SUPA G0 Z-1 D0
N18 G0 B0 C=DC(0)
N19 D1
N20 ; 
N21 ;Operation : FINISH_TURN_OD_VTL_LINEAR
N22 ; 
N23 ;
N24 _F_CUTTING=0.15 _F_ENGAGE=0.15 _F_RETRACT=0.15 _F_FIRSTCUT=0.15 _F_STEPOVER=0.15
N25 ;
N26 T="RUNDP-D10"
N27 M6
N28 D1
N29 G18
N30 G521
N31 G18
N32 D1
N33 CYCLE800(0,"DREHEN",200,57,,,,0,0,0,,,,1,0,12)
N34 G0 B20
N35 TOWWCS
N36 TRAFOON("TRAORI_DREHEN")
N37 ORIMKS
N38 LIMS=750
M111

CYCLE832(0.01,_TOP_SURFACE_SMOOTH_ON+_ORI_ROUGH,0.5)
N39 G96 S2=2000 M2=3
N40 G0 Y0
N41 X599.9974 Z310 B20
N42 Z17.3369
N43 X417.3095 M7
N44 G1 X410.2385 Z13.8013 F=_F_ENGAGE
N45 X403.8636 B25 F=_F_CUTTING
N46 X401.273 Z14.8 B25.77
N47 X398.0019 B26.54
N48 X397.9163 B26.581
N49 X397.8307
N50 X397.7236 B26.631
N51 X397.6166 Z14.7999
N52 X397.5096 B26.682
N53 X397.4025 Z14.7998
N54 X397.2955 Z14.7997 B26.732
N55 X397.1885 Z14.7996
N56 X397.0814 Z14.7995 B26.782
N57 X396.9743 Z14.7994
N58 X396.8673 Z14.7992 B26.833
N59 X396.7602 Z14.7991
N60 X396.6532 Z14.7989 B26.883
N61 X396.5461 Z14.7988
N62 X396.439 Z14.7986 B26.934
N63 X396.3319 Z14.7984
N64 X396.2248 Z14.7981 B26.984
N65 X396.1177 Z14.7979
N66 X396.0106 Z14.7977 B27.034
N67 X395.9035 Z14.7974
N68 X395.7964 Z14.7971 B27.085
N69 X395.6893 Z14.7968
N70 X395.5822 Z14.7965 B27.135
N71 X395.475 Z14.7962
N72 X395.3679 Z14.7959 B27.186
N73 X395.2608 Z14.7956
N74 X395.1536 Z14.7952 B27.236
N75 X395.0465 Z14.7948
N76 X394.9393 Z14.7944 B27.287
N77 X394.8322 Z14.794
N78 X394.725 Z14.7936 B27.337
N79 X394.6179 Z14.7932
N80 X394.5107 Z14.7927 B27.388
N81 X394.4035 Z14.7923
N82 X394.2963 Z14.7918 B27.438
N83 X394.1891 Z14.7913
N84 X394.0819 Z14.7908 B27.489
N85 X393.9747 Z14.7903
N86 X393.8675 Z14.7898 B27.539
N87 X393.7603 Z14.7892
N88 X393.6531 Z14.7887 B27.59
N89 X393.5459 Z14.7881
N90 X393.4387 Z14.7875 B27.64
N91 X393.3315 Z14.7869
N92 X393.2242 Z14.7863 B27.691
N93 X393.117 Z14.7857
N94 X393.0097 Z14.785 B27.741
N95 X392.9025 Z14.7844
N96 X392.7953 Z14.7837 B27.792
N97 X392.688 Z14.783
N98 X392.5807 Z14.7823 B27.842
N99 X392.4735 Z14.7816
N100 X392.3662 Z14.7808 B27.893
N101 X392.2589 Z14.7801
N102 X392.1516 Z14.7793 B27.943
N103 X392.0444 Z14.7785
N104 X391.9371 Z14.7777 B27.994
N105 X391.8298 Z14.7769
N106 X391.7225 Z14.7761 B28.044
N107 X391.6152 Z14.7753
N108 X391.5078 Z14.7744 B28.095
N109 X391.4005 Z14.7735
N110 X391.2932 Z14.7727 B28.145
N111 X391.1859 Z14.7718
N112 X391.0785 Z14.7708 B28.196
N113 X390.9712 Z14.7699
N114 X390.8639 Z14.769 B28.246
N115 X390.7565 Z14.768
N116 X390.6492 Z14.767 B28.297
N117 X390.5418 Z14.766
N118 X390.5257 Z14.7659 B28.305
N119 X390.5096 Z14.7657
N120 X390.4936 Z14.7656 B28.312
N121 X390.4776 Z14.7654
N122 X390.4616 Z14.7653 B28.32
N123 X390.4456 Z14.7651
N124 X390.4296 Z14.765 B28.327
N125 X390.4137 Z14.7649
N126 X390.3978 Z14.7647 B28.335
N127 X390.3819 Z14.7646
N128 X390.3661 Z14.7644 B28.342
N129 X390.3502 Z14.7643
N130 X390.3344 Z14.7642 B28.35
N131 X390.3186 Z14.764
N132 X390.3028 Z14.7639 B28.357
N133 X390.2871 Z14.7637
N134 X390.2714 Z14.7636 B28.364
N135 X390.2557 Z14.7635
N136 X390.24 Z14.7633 B28.372
N137 X390.2244 Z14.7632
N138 X390.2087 Z14.7631 B28.379
N139 X390.1931 Z14.7629
N140 X390.1776 Z14.7628 B28.386
N141 X390.162 Z14.7627
N142 X390.1465 Z14.7626 B28.394
N143 X390.131 Z14.7624
N144 X390.1155 Z14.7623 B28.401
N145 X390.1 Z14.7622
N146 X390.0846 Z14.7621 B28.408
N147 X390.0692 Z14.762
N148 X390.0538 Z14.7618 B28.416
N149 X390.0384 Z14.7617
N150 X390.0231 Z14.7616 B28.423
N151 X390.0078 Z14.7615
N152 X389.9925 Z14.7614 B28.43
N153 X389.9772 Z14.7613
N154 X389.962 Z14.7612 B28.437
N155 X389.9467 Z14.761
N156 X389.9315 Z14.7609 B28.444
N157 X389.9164 Z14.7608
N158 X389.9012 Z14.7607 B28.451
N159 X389.8861 Z14.7606
N160 X389.871 Z14.7605 B28.459
N161 X389.8559 Z14.7604
N162 X389.8409 Z14.7603 B28.466
N163 X389.8258 Z14.7602
N164 X389.8108 Z14.7601 B28.473
N165 X389.7958 Z14.76
N166 X389.7809 Z14.7599 B28.48
N167 X389.7659
N168 X389.751 Z14.7598 B28.487
N169 X389.7361 Z14.7597
N170 X389.7213 Z14.7596 B28.494
N171 X389.7064 Z14.7595
N172 X389.6916 Z14.7594 B28.501
N173 X389.6768 Z14.7593
N174 X389.662 B28.508
N175 X389.6473 Z14.7592
N176 X389.6326 Z14.7591 B28.515
N177 X389.6179 Z14.759
N178 X389.6032 B28.521
N179 X389.5885 Z14.7589
N180 X389.5739 Z14.7588 B28.528
N181 X389.5593
N182 X389.5447 Z14.7587 B28.535
N183 X389.5302 Z14.7586
N184 X389.5157 B28.542
N185 X389.5011 Z14.7585
N186 X389.4867 Z14.7584 B28.549
N187 X389.4722
N188 X389.4578 Z14.7583 B28.556
N189 X389.4433
N190 X389.429 Z14.7582 B28.562
N191 X389.4146
N192 X389.4003 Z14.7581 B28.569
N193 X389.3859
N194 X389.3717 Z14.758 B28.576
N195 X389.3574
N196 X389.3432 B28.583
N197 X389.3289 Z14.7579
N198 X389.3147 B28.589
N199 X389.3006
N200 X389.2864 Z14.7578 B28.596
N201 X389.2723
N202 X389.2582 B28.603
N203 X389.2441 Z14.7577
N204 X389.2301 B28.609
N205 X389.216
N206 X389.202 B28.616
N207 X389.1881
N208 X389.1741 Z14.7576 B28.622
N209 X389.1602
N210 X389.1463 B28.629
N211 X389.1324
N212 X389.1185 B28.635
N213 X389.1047
N214 X389.0911 B28.642
N215 X389.0774
N216 X389.0635 B28.648
N217 X389.0496
N218 X389.0359 B28.655
N219 X389.0222
N220 X389.0085 B28.661
N221 X388.9949
N222 X388.9813 B28.668
N223 X388.9677 Z14.7577
N224 X388.9541 B28.674
N225 X388.9406
N226 X388.9271 B28.68
N227 X388.9136
N228 X388.9001 Z14.7578 B28.687
N229 X388.8866
N230 X388.8732 B28.693
N231 X388.8598 Z14.7579
N232 X388.8465 B28.699
N233 X388.8331
N234 X388.8198 Z14.758 B28.706
N235 X388.8065
N236 X388.7932 Z14.7581 B28.712
N237 X388.7799
N238 X388.7667 Z14.7582 B28.718
N239 X388.7535
N240 X388.7403 Z14.7583 B28.724
N241 X388.7272
N242 X388.7141 Z14.7584 B28.73
N243 X388.7009 Z14.7585
N244 X388.6879 B28.737
N245 X388.6748 Z14.7586
N246 X388.6618 Z14.7587 B28.743
N247 X388.6488
N248 X388.6358 Z14.7588 B28.749
N249 X388.6228 Z14.7589
N250 X388.6099 Z14.759 B28.755
N251 X388.597
N252 X388.5841 Z14.7591 B28.761
N253 X388.5712 Z14.7592
N254 X388.5584 Z14.7593 B28.767
N255 X388.5456 Z14.7594
N256 X388.5328 Z14.7595 B28.773
N257 X388.52 Z14.7596
N258 X388.5073 Z14.7597 B28.779
N259 X388.4946 Z14.7598
N260 X388.4819 Z14.7599 B28.785
N261 X388.4692 Z14.76
N262 X388.4566 Z14.7601 B28.791
N263 X388.444 Z14.7602
N264 X388.4314 Z14.7603 B28.797
N265 X388.4188 Z14.7604
N266 X388.4063 Z14.7606 B28.803
N267 X388.3938 Z14.7607
N268 X388.3813 Z14.7608 B28.809
N269 X388.3688 Z14.7609
N270 X388.3564 Z14.7611 B28.815
N271 X388.3439 Z14.7612
N272 X388.3315 Z14.7613 B28.82
N273 X388.3192 Z14.7615
N274 X388.3068 Z14.7616 B28.826
N275 X388.2945 Z14.7617
N276 X388.2822 Z14.7619 B28.832
N277 X388.2699 Z14.762
N278 X388.2577 Z14.7622 B28.838
N279 X388.2455 Z14.7623
N280 X388.2333 Z14.7625 B28.843
N281 X388.2211 Z14.7626
N282 X388.209 Z14.7628 B28.849
N283 X388.1968 Z14.763
N284 X388.1847 Z14.7631 B28.855
N285 X388.1726 Z14.7633
N286 X388.1606 Z14.7635 B28.861
N287 X388.1486 Z14.7636
N288 X388.1366 Z14.7638 B28.866
N289 X388.1246 Z14.764
N290 X388.1126 Z14.7642 B28.872
N291 X388.1007 Z14.7644
N292 X388.0888 Z14.7645 B28.877
N293 X388.0769 Z14.7647
N294 X388.0651 Z14.7649 B28.883
N295 X388.0533 Z14.7651
N296 X388.0415 Z14.7653 B28.889
N297 X388.0297 Z14.7655
N298 X388.0179 Z14.7657 B28.894
N299 X388.0062 Z14.7659
N300 X387.9945 Z14.7661 B28.9
N301 X387.9828 Z14.7663
N302 X387.9712 Z14.7665 B28.905
N303 X387.9595 Z14.7668
N304 X387.9479 Z14.767 B28.911
N305 X387.9363 Z14.7672
N306 X387.9248 Z14.7674 B28.916
N307 X387.9132 Z14.7676
N308 X387.9018 Z14.7679 B28.921
N309 X387.8903 Z14.7681
N310 X387.8788 Z14.7683 B28.927
N311 X387.8674 Z14.7686
N312 X387.856 Z14.7688 B28.932
N313 X387.8446 Z14.769
N314 X387.8332 Z14.7693 B28.938
N315 X387.8219 Z14.7695
N316 X387.8106 Z14.7698 B28.943
N317 X387.7993 Z14.77
N318 X387.7881 Z14.7703 B28.948
N319 X387.7768 Z14.7705
N320 X387.7656 Z14.7708 B28.953
N321 X387.7544 Z14.7711
N322 X387.7433 Z14.7713 B28.959
N323 X387.7321 Z14.7716
N324 X387.721 Z14.7719 B28.964
N325 X387.7099 Z14.7721
N326 X387.6989 Z14.7724 B28.969
N327 X387.6878 Z14.7727
N328 X387.6768 Z14.773 B28.974
N329 X387.6658 Z14.7732
N330 X387.6549 Z14.7735 B28.979
N331 X387.6439 Z14.7738
N332 X387.633 Z14.7741 B28.985
N333 X387.6221 Z14.7744
N334 X387.6113 Z14.7747 B28.99
N335 X387.6004 Z14.775
N336 X387.5896 Z14.7753 B28.995
N337 X387.5788 Z14.7756
N338 X387.5681 Z14.7759 B29
N339 X387.5573 Z14.7762
N340 X387.5466 Z14.7765 B29.005
N341 X387.5359 Z14.7768
N342 X387.5253 Z14.7772 B29.01
N343 X387.5146 Z14.7775
N344 X387.504 Z14.7778 B29.015
N345 X387.4934 Z14.7781
N346 X387.4829 Z14.7784 B29.02
N347 X387.4723 Z14.7788
N348 X387.4618 Z14.7791 B29.025
N349 X387.4513 Z14.7794
N350 X387.4409 Z14.7798 B29.03
N351 X387.4304 Z14.7801
N352 X387.42 Z14.7805 B29.035
N353 X387.4096 Z14.7808
N354 X387.3993 Z14.7812 B29.04
N355 X387.3889 Z14.7815
N356 X387.3786 Z14.7819 B29.044
N357 X387.3683 Z14.7822
N358 X387.3581 Z14.7826 B29.049
N359 X387.3478 Z14.7829
N360 X387.3376 Z14.7833 B29.054
N361 X387.3274 Z14.7837
N362 X387.3172 Z14.784 B29.059
N363 X387.3071 Z14.7844
N364 X387.297 Z14.7848 B29.064
N365 X387.2869 Z14.7852
N366 X387.2768 Z14.7855 B29.068
N367 X387.2668 Z14.7859
N368 X387.2568 Z14.7863 B29.073
N369 X387.2468 Z14.7867
N370 X387.2368 Z14.7871 B29.078
N371 X387.2268 Z14.7875
N372 X387.2169 Z14.7879 B29.083
N373 X387.207 Z14.7883
N374 X387.1972 Z14.7887 B29.087
N375 X387.1873 Z14.7891
N376 X387.1775 Z14.7895 B29.092
N377 X387.1677 Z14.7899
N378 X387.1579 Z14.7903 B29.096
N379 X387.1482 Z14.7907
N380 X387.1385 Z14.7911 B29.101
N381 X387.1288 Z14.7915
N382 X387.1191 Z14.7919 B29.106
N383 X387.1094 Z14.7924
N384 X387.0998 Z14.7928 B29.11
N385 X387.0902 Z14.7932
N386 X387.0806 Z14.7936 B29.115
N387 X387.0711 Z14.7941
N388 X387.0616 Z14.7945 B29.119
N389 X387.0521 Z14.795
N390 X387.0426 Z14.7954 B29.124
N391 X387.0331 Z14.7958
N392 X387.0237 Z14.7963 B29.128
N393 X387.0143 Z14.7967
N394 X387.0049 Z14.7972 B29.133
N395 X386.9956 Z14.7976
N396 X386.9862 Z14.7981 B29.137
N397 X386.9769 Z14.7985
N398 X386.9677 Z14.799 B29.141
N399 X386.9584 Z14.7995
N400 X386.9492 Z14.7999 B29.146
N401 X386.9399 Z14.8004
N402 X386.9308 Z14.8008 B29.15
N403 X386.9216 Z14.8013
N404 X386.9125 Z14.8018 B29.154
N405 X386.9034 Z14.8023
N406 X386.8943 Z14.8027 B29.159
N407 X386.8852 Z14.8032
N408 X386.8762 Z14.8037 B29.163
N409 X386.8672 Z14.8042
N410 X386.8582 Z14.8047 B29.167
N411 X386.8492 Z14.8052
N412 X386.8403 Z14.8057 B29.171
N413 X386.8313 Z14.8061
N414 X386.8225 Z14.8066 B29.176
N415 X386.8136 Z14.8071
N416 X386.8048 Z14.8076 B29.18
N417 X386.7959 Z14.8081
N418 X386.7871 Z14.8087 B29.184
N419 X386.7784 Z14.8092
N420 X386.7696 Z14.8097 B29.188
N421 X386.7609 Z14.8102
N422 X386.7522 Z14.8107 B29.192
N423 X386.7435 Z14.8112
N424 X386.7349 Z14.8117 B29.196
N425 X386.7262 Z14.8122
N426 X386.7176 Z14.8128 B29.2
N427 X386.709 Z14.8133
N428 X386.7005 Z14.8138 B29.204
N429 X386.692 Z14.8144
N430 X386.6835 Z14.8149 B29.208
N431 X386.675 Z14.8154
N432 X386.6665 Z14.816 B29.213
N433 X386.6581 Z14.8165
N434 X386.6497 Z14.817 B29.216
N435 X386.6413 Z14.8176
N436 X386.6329 Z14.8181 B29.22
N437 X386.6246 Z14.8187
N438 X386.6163 Z14.8192 B29.224
N439 X386.6079 Z14.8198
N440 X386.5997 Z14.8203 B29.228
N441 X386.5914 Z14.8209
N442 X386.5832 Z14.8214 B29.232
N443 X386.575 Z14.822
N444 X386.5668 Z14.8225 B29.236
N445 X386.5587 Z14.8231
N446 X386.5506 Z14.8237 B29.24
N447 X386.5424 Z14.8242
N448 X386.5344 Z14.8248 B29.244
N449 X386.5263 Z14.8254
N450 X386.5183 Z14.826 B29.248
N451 X386.5103 Z14.8265
N452 X386.5023 Z14.8271 B29.251
N453 X386.4943 Z14.8277
N454 X386.4864 Z14.8283 B29.255
N455 X386.4784 Z14.8289
N456 X386.4706 Z14.8294 B29.259
N457 X386.4627 Z14.83
N458 X386.4548 Z14.8306 B29.263
N459 X386.447 Z14.8312
N460 X386.4392 Z14.8318 B29.266
N461 X386.4314 Z14.8324
N462 X386.4237 Z14.833 B29.27
N463 X386.4159 Z14.8336
N464 X386.4082 Z14.8342 B29.274
N465 X386.4005 Z14.8348
N466 X386.3929 Z14.8354 B29.277
N467 X386.3852 Z14.836
N468 X386.3776 Z14.8366 B29.281
N469 X386.37 Z14.8372
N470 X386.3624 Z14.8378 B29.285
N471 X386.3549 Z14.8384
N472 X386.3473 Z14.8391 B29.288
N473 X386.3398 Z14.8397
N474 X386.3324 Z14.8403 B29.292
N475 X386.3249 Z14.8409
N476 X386.3175 Z14.8415 B29.295
N477 X386.31 Z14.8422
N478 X386.3026 Z14.8428 B29.299
N479 X386.2953 Z14.8434
N480 X386.2879 Z14.844 B29.302
N481 X386.2806 Z14.8447
N482 X386.2733 Z14.8453 B29.306
N483 X386.266 Z14.8459
N484 X386.2587 Z14.8466 B29.309
N485 X386.2515 Z14.8472
N486 X386.2443 Z14.8479 B29.313
N487 X386.2371 Z14.8485
N488 X386.2299 Z14.8491 B29.316
N489 X386.2228 Z14.8498
N490 X386.2156 Z14.8504 B29.32
N491 X386.2085 Z14.8511
N492 X386.2014 Z14.8517 B29.323
N493 X386.1944 Z14.8524
N494 X386.1873 Z14.853 B29.326
N495 X386.1803 Z14.8537
N496 X386.1733 Z14.8543 B29.33
N497 X386.1663 Z14.855
N498 X386.1594 Z14.8557 B29.333
N499 X386.1524 Z14.8563
N500 X386.1455 Z14.857 B29.336
N501 X386.1386 Z14.8577
N502 X386.1318 Z14.8583 B29.34
N503 X386.1249 Z14.859
N504 X386.1181 Z14.8597 B29.343
N505 X386.1113 Z14.8603
N506 X386.1045 Z14.861 B29.346
N507 X386.0977 Z14.8617
N508 X386.091 Z14.8624 B29.349
N509 X386.0843 Z14.863
N510 X386.0776 Z14.8637 B29.353
N511 X386.0709 Z14.8644
N512 X386.0642 Z14.8651 B29.356
N513 X386.0576 Z14.8657
N514 X386.051 Z14.8664 B29.359
N515 X386.0444 Z14.8671
N516 X386.0378 Z14.8678 B29.362
N517 X386.0312 Z14.8685
N518 X386.0247 Z14.8692 B29.365
N519 X386.0182 Z14.8699
N520 X386.0117 Z14.8706 B29.368
N521 X386.0052 Z14.8713
N522 X385.9988 Z14.872 B29.372
N523 X385.9923 Z14.8727
N524 X385.9859 Z14.8734 B29.375
N525 X385.9795 Z14.8741
N526 X385.9732 Z14.8748 B29.378
N527 X385.9668 Z14.8755
N528 X385.9605 Z14.8762 B29.381
N529 X385.9542 Z14.8769
N530 X385.9479 Z14.8776 B29.384
N531 X385.9416 Z14.8783
N532 X385.9353 Z14.879 B29.387
N533 X385.9291 Z14.8797
N534 X385.9229 Z14.8804 B29.39
N535 X385.9167 Z14.8811
N536 X385.9105 Z14.8818 B29.393
N537 X385.9043 Z14.8826
N538 X385.8982 Z14.8833 B29.396
N539 X385.8921 Z14.884
N540 X385.886 Z14.8847 B29.399
N541 X385.8799 Z14.8854
N542 X385.8739 Z14.8862 B29.402
N543 X385.8678 Z14.8869
N544 X385.8618 Z14.8876 B29.405
N545 X385.8558 Z14.8883
N546 X385.8498 Z14.8891 B29.407
N547 X385.8438 Z14.8898
N548 X385.8379 Z14.8905 B29.41
N549 X385.8319 Z14.8913
N550 X385.826 Z14.892 B29.413
N551 X385.8201 Z14.8927
N552 X385.8133 Z14.8936 B29.416
N553 X385.8064 Z14.8945
N554 X385.7982 Z14.8955 B29.422
N555 X385.7901 Z14.8966
N556 X385.7819 Z14.8977
N557 X385.7728 Z14.8989 B29.429
N558 X385.7637 Z14.9001
N559 X385.7547 Z14.9014
N560 X385.7447 Z14.9028 B29.436
N561 X385.7347 Z14.9043
N562 X385.7248 Z14.9057
N563 X385.7163 Z14.907 B29.445
N564 X385.7078 Z14.9083
N565 X385.6994 Z14.9096
N566 X385.6909 Z14.9109
N567 X385.6815 Z14.9124 B29.463
N568 X385.6721 Z14.9139
N569 X385.6626 Z14.9154
N570 X385.6532 Z14.9169
N571 X385.6439 Z14.9185
N572 X385.6345 Z14.9201
N573 X385.6251 Z14.9217
N574 X385.6158 Z14.9233
N575 X385.6075 Z14.9248 B29.472
N576 X385.5992 Z14.9263
N577 X385.5909 Z14.9278
N578 X385.5826 Z14.9293
N579 X385.5733 Z14.931 B29.479
N580 X385.5641 Z14.9328
N581 X385.5549 Z14.9345
N582 X385.5465 Z14.9361 B29.485
N583 X385.5382 Z14.9377
N584 X385.53 Z14.9394
N585 X385.5221 Z14.9409 B29.491
N586 X385.5143 Z14.9425
N587 X385.5065 Z14.9441
N588 X385.4992 Z14.9456 B29.497
N589 X385.4919 Z14.9471
N590 X385.4846 Z14.9487
N591 X385.4777 Z14.9501 B29.502
N592 X385.4708 Z14.9516
N593 X385.464 Z14.9531
N594 X385.4572 Z14.9545 B29.507
N595 X385.4503 Z14.956
N596 X385.4435 Z14.9576
N597 X385.434 Z14.9597 B29.512
N598 X385.4245 Z14.9618
N599 X385.4157 Z14.9639 B29.517
N600 X385.4069 Z14.9659
N601 X385.3981 Z14.968 B29.521
N602 X385.3893 Z14.97
N603 X385.3806 Z14.9721 B29.526
N604 X385.3719 Z14.9742
N605 X385.3633 Z14.9764 B29.53
N606 X385.3546 Z14.9785
N607 X385.3467 Z14.9805 B29.534
N608 X385.3387 Z14.9825
N609 X385.3309 Z14.9845 B29.539
N610 X385.323 Z14.9865
N611 X385.3157 Z14.9884 B29.542
N612 X385.3084 Z14.9904
N613 X385.3012 Z14.9923 B29.546
N614 X385.294 Z14.9942
N615 X385.2869 Z14.9961 B29.55
N616 X385.2797 Z14.9981
N617 X385.2726 Z15 B29.554
N618 X385.2656 Z15.002
N619 X385.2585 Z15.0039 B29.558
N620 X385.2515 Z15.0059
N621 X385.2445 Z15.0079 B29.561
N622 X385.2376 Z15.0099
N623 X385.2306 Z15.0119 B29.565
N624 X385.2237 Z15.0139
N625 X385.2169 Z15.0159 B29.569
N626 X385.21 Z15.018
N627 X385.2032 Z15.02 B29.573
N628 X385.1964 Z15.0221
N629 X385.1897 Z15.0241 B29.576
N630 X385.1829 Z15.0262
N631 X385.1763 Z15.0282 B29.58
N632 X385.1696 Z15.0303
N633 X385.1635 Z15.0322 B29.584
N634 X385.1575 Z15.0341
N635 X385.1515 Z15.0361 B29.587
N636 X385.1455 Z15.038
N637 X385.1395 Z15.0399 B29.59
N638 X385.1335 Z15.0419
N639 X385.1276 Z15.0438 B29.594
N640 X385.1217 Z15.0458
N641 X385.1159 Z15.0477 B29.597
N642 X385.11 Z15.0497
N643 X385.1047 Z15.0515 B29.6
N644 X385.0995 Z15.0533
N645 X385.0942 Z15.0551 B29.603
N646 X385.089 Z15.0569
N647 X385.0838 Z15.0587 B29.606
N648 X385.0787 Z15.0605
N649 X385.0735 Z15.0623 B29.609
N650 X385.0684 Z15.0641
N651 X385.0633 Z15.066 B29.612
N652 X385.0582 Z15.0678
N653 X385.0532 Z15.0696 B29.615
N654 X385.0482 Z15.0715
N655 X385.0432 Z15.0733 B29.618
N656 X385.0382 Z15.0751
N657 X385.0333 Z15.077 B29.621
N658 X385.0283 Z15.0788
N659 X385.0234 Z15.0806 B29.623
N660 X385.0186 Z15.0825
N661 X385.0137 Z15.0843 B29.626
N662 X385.0089 Z15.0862
N663 X385.0041 Z15.0881 B29.629
N664 X384.9993 Z15.0899
N665 X384.9946 Z15.0918 B29.632
N666 X384.9898 Z15.0936
N667 X384.9851 Z15.0955 B29.635
N668 X384.9805 Z15.0974
N669 X384.9758 Z15.0992 B29.638
N670 X384.9712 Z15.1011
N671 X384.9666 Z15.103 B29.64
N672 X384.962 Z15.1049
N673 X384.9575 Z15.1067 B29.643
N674 X384.9529 Z15.1086
N675 X384.9484 Z15.1105 B29.646
N676 X384.944 Z15.1124
N677 X384.9395 Z15.1143 B29.649
N678 X384.9351 Z15.1162
N679 X384.9307 Z15.118 B29.651
N680 X384.9263 Z15.1199
N681 X384.922 Z15.1218 B29.654
N682 X384.9177 Z15.1237
N683 X384.9134 Z15.1256 B29.657
N684 X384.9091 Z15.1275
N685 X384.9049 Z15.1294 B29.659
N686 X384.9007 Z15.1313
N687 X384.8965 Z15.1331 B29.662
N688 X384.8923 Z15.135
N689 X384.8882 Z15.1369 B29.665
N690 X384.8841 Z15.1388
N691 X384.88 Z15.1407 B29.667
N692 X384.8759 Z15.1426
N693 X384.8719 Z15.1445 B29.67
N694 X384.8679 Z15.1464
N695 X384.8639 Z15.1483 B29.673
N696 X384.8599 Z15.1502
N697 X384.856 Z15.1521 B29.675
N698 X384.8521 Z15.154
N699 X384.8482 Z15.1559 B29.678
N700 X384.8444 Z15.1578
N701 X384.8405 Z15.1596 B29.68
N702 X384.8367 Z15.1615
N703 X384.833 Z15.1634 B29.683
N704 X384.8292 Z15.1653
N705 X384.8255 Z15.1672 B29.685
N706 X384.8218 Z15.1691
N707 X384.8181 Z15.171 B29.688
N708 X384.8144 Z15.1729
N709 X384.8108 Z15.1748 B29.69
N710 X384.8072 Z15.1766
N711 X384.8037 Z15.1785 B29.693
N712 X384.8001 Z15.1804
N713 X384.7966 Z15.1823 B29.695
N714 X384.7931 Z15.1842
N715 X384.7896 Z15.186 B29.697
N716 X384.7862 Z15.1879
N717 X384.7827 Z15.1898 B29.7
N718 X384.7793 Z15.1917
N719 X384.776 Z15.1935 B29.702
N720 X384.7726 Z15.1954
N721 X384.7693 Z15.1973 B29.704
N722 X384.766 Z15.1992
N723 X384.7627 Z15.201 B29.707
N724 X384.7595 Z15.2029
N725 X384.7563 Z15.2047 B29.709
N726 X384.7531 Z15.2066
N727 X384.7502 Z15.2083 B29.711
N728 X384.7473 Z15.21
N729 X384.7461 Z15.2107 B29.712
N730 X384.745 Z15.2113
N731 X384.7423 Z15.2129 B29.713
N732 X384.7391 Z15.2149 B29.714
N733 X384.7358 Z15.2169 B29.715
N734 X384.7324 Z15.2189 B29.717
N735 X384.7291 Z15.221 B29.718
N736 X384.7257 Z15.2231 B29.719
N737 X384.7222 Z15.2253 B29.721
N738 X384.7188 Z15.2274 B29.722
N739 X384.7153 Z15.2297 B29.723
N740 X384.7118 Z15.2319 B29.725
N741 X384.7082 Z15.2342 B29.726
N742 X384.7046 Z15.2365 B29.727
N743 X384.701 Z15.2389 B29.729
N744 X384.6974 Z15.2413 B29.73
N745 X384.6937 Z15.2437 B29.732
N746 X384.69 Z15.2462 B29.733
N747 X384.6863 Z15.2487 B29.734
N748 X384.6844 Z15.25 B29.736
N749 X384.6826 Z15.2513
N750 X384.6807 Z15.2526 B29.737
N751 X384.6788 Z15.2539
N752 X384.6769 Z15.2552 B29.739
N753 X384.675 Z15.2565
N754 X384.6731 Z15.2579 B29.741
N755 X384.6712 Z15.2592
N756 X384.6693 Z15.2606 B29.742
N757 X384.6674 Z15.2619
N758 X384.6654 Z15.2633 B29.744
N759 X384.6635 Z15.2647
N760 X384.6615 Z15.2661 B29.745
N761 X384.6596 Z15.2674
N762 X384.6576 Z15.2689 B29.747
N763 X384.6557 Z15.2703
N764 X384.6537 Z15.2717 B29.749
N765 X384.6518 Z15.2731
N766 X384.6498 Z15.2746 B29.75
N767 X384.6478 Z15.276
N768 X384.6458 Z15.2775 B29.752
N769 X384.6438 Z15.279
N770 X384.6418 Z15.2805 B29.754
N771 X384.6398 Z15.282
N772 X384.6378 Z15.2835 B29.755
N773 X384.6358 Z15.285
N774 X384.6338 Z15.2865 B29.757
N775 X384.6318 Z15.288
N776 X384.6298 Z15.2896 B29.759
N777 X384.6278 Z15.2911
N778 X384.6257 Z15.2927 B29.76
N779 X384.6237 Z15.2943
N780 X384.6216 Z15.2959 B29.762
N781 X384.6196 Z15.2974
N782 X384.6176 Z15.2991 B29.764
N783 X384.6155 Z15.3007
N784 X384.6135 Z15.3023 B29.766
N785 X384.6114 Z15.3039
N786 X384.6093 Z15.3056 B29.768
N787 X384.6073 Z15.3072
N788 X384.6052 Z15.3089 B29.77
N789 X384.6031 Z15.3105
N790 X384.6007 Z15.3125 B29.772
N791 X384.5983 Z15.3145
N792 X384.5958 Z15.3165 B29.774
N793 X384.5934 Z15.3185
N794 X384.591 Z15.3205 B29.776
N795 X384.5885 Z15.3225
N796 X384.5861 Z15.3245 B29.778
N797 X384.5836 Z15.3266
N798 X384.5811 Z15.3287 B29.781
N799 X384.5787 Z15.3307
N800 X384.5762 Z15.3328 B29.783
N801 X384.5738 Z15.3349
N802 X384.5713 Z15.3371 B29.785
N803 X384.5688 Z15.3392
N804 X384.5663 Z15.3413 B29.788
N805 X384.5639 Z15.3435
N806 X384.5614 Z15.3457 B29.79
N807 X384.5589 Z15.3478
N808 X384.5564 Z15.35 B29.792
N809 X384.5539 Z15.3522
N810 X384.5514 Z15.3545 B29.795
N811 X384.5489 Z15.3567
N812 X384.5464 Z15.359 B29.797
N813 X384.5439 Z15.3612
N814 X384.5414 Z15.3635 B29.8
N815 X384.5389 Z15.3658
N816 X384.5364 Z15.3681 B29.802
N817 X384.5339 Z15.3704
N818 X384.5314 Z15.3727 B29.805
N819 X384.5289 Z15.375
N820 X384.5264 Z15.3774 B29.807
N821 X384.5239 Z15.3798
N822 X384.5214 Z15.3821 B29.81
N823 X384.5189 Z15.3845
N824 X384.5164 Z15.3869 B29.812
N825 X384.5139 Z15.3893
N826 X384.5113 Z15.3918 B29.815
N827 X384.5088 Z15.3942
N828 X384.5063 Z15.3966 B29.817
N829 X384.5038 Z15.3991
N830 X384.5013 Z15.4016 B29.82
N831 X384.4988 Z15.4041
N832 X384.4963 Z15.4066 B29.823
N833 X384.4938 Z15.4091
N834 X384.4913 Z15.4116 B29.825
N835 X384.4888 Z15.4141
N836 X384.4862 Z15.4167 B29.828
N837 X384.4837 Z15.4192
N838 X384.4812 Z15.4218 B29.831
N839 X384.4787 Z15.4244
N840 X384.4759 Z15.4274 B29.834
N841 X384.473 Z15.4303
N842 X384.4702 Z15.4333 B29.837
N843 X384.4673 Z15.4363
N844 X384.4645 Z15.4394 B29.84
N845 X384.4616 Z15.4424
N846 X384.4588 Z15.4455 B29.843
N847 X384.4559 Z15.4485
N848 X384.4531 Z15.4516 B29.846
N849 X384.4503 Z15.4547
N850 X384.4474 Z15.4579 B29.85
N851 X384.4446 Z15.461
N852 X384.4418 Z15.4641 B29.853
N853 X384.439 Z15.4673
N854 X384.4362 Z15.4705 B29.856
N855 X384.4334 Z15.4737
N856 X384.4305 Z15.4769 B29.86
N857 X384.4277 Z15.4801
N858 X384.4249 Z15.4833 B29.863
N859 X384.4222 Z15.4866
N860 X384.4194 Z15.4898 B29.866
N861 X384.4166 Z15.4931
N862 X384.4138 Z15.4964 B29.87
N863 X384.4111 Z15.4997
N864 X384.4083 Z15.503 B29.873
N865 X384.4056 Z15.5064
N866 X384.4028 Z15.5097 B29.876
N867 X384.4001 Z15.5131
N868 X384.3973 Z15.5165 B29.88
N869 X384.3946 Z15.5198
N870 X384.3919 Z15.5232 B29.883
N871 X384.3892 Z15.5266
N872 X384.3865 Z15.5301 B29.887
N873 X384.3838 Z15.5335
N874 X384.3811 Z15.537 B29.89
N875 X384.3784 Z15.5404
N876 X384.3757 Z15.5439 B29.894
N877 X384.3731 Z15.5474
N878 X384.3704 Z15.5509 B29.897
N879 X384.3677 Z15.5544
N880 X384.3651 Z15.5579 B29.901
N881 X384.3625 Z15.5615
N882 X384.3599 Z15.565 B29.904
N883 X384.3572 Z15.5686
N884 X384.3546 Z15.5722 B29.908
N885 X384.352 Z15.5758
N886 X384.3495 Z15.5794 B29.912
N887 X384.3469 Z15.583
N888 X384.3443 Z15.5866 B29.915
N889 X384.3418 Z15.5902
N890 X384.3392 Z15.5939 B29.919
N891 X384.3367 Z15.5975
N892 X384.3341 Z15.6012 B29.922
N893 X384.3316 Z15.6049
N894 X384.3291 Z15.6086 B29.926
N895 X384.3266 Z15.6123
N896 X384.3242 Z15.616 B29.93
N897 X384.3217 Z15.6197
N898 X384.3192 Z15.6234 B29.934
N899 X384.3168 Z15.6272
N900 X384.3143 Z15.6309 B29.937
N901 X384.3119 Z15.6347
N902 X384.3095 Z15.6385 B29.941
N903 X384.3071 Z15.6423
N904 X384.3044 Z15.6465 B29.945
N905 X384.3017 Z15.6508
N906 X384.2991 Z15.6551 B29.949
N907 X384.2964 Z15.6594
N908 X384.2938 Z15.6637 B29.954
N909 X384.2912 Z15.668
N910 X384.2886 Z15.6724 B29.958
N911 X384.286 Z15.6767
N912 X384.2832 Z15.6816 B29.963
N913 X384.2804 Z15.6864
N914 X384.2776 Z15.6913 B29.968
N915 X384.2748 Z15.6962
N916 X384.272 Z15.7011 B29.972
N917 X384.2693 Z15.706
N918 X384.2666 Z15.7109 B29.977
N919 X384.2639 Z15.7158
N920 X384.2612 Z15.7208 B29.982
N921 X384.2586 Z15.7257
N922 X384.2559 Z15.7307 B29.987
N923 X384.2533 Z15.7357
N924 X384.2507 Z15.7407 B29.992
N925 X384.2482 Z15.7457
N926 X384.2456 Z15.7507 B29.997
N927 X384.2431 Z15.7557
N928 X384.2413 Z15.7593 B30
N929 X384.2396 Z15.7629
N930 X384.2386 Z15.7648 B30.001
N931 X384.2377 Z15.7668
N932 X384.235 Z15.7724 B30.003
N933 X384.2323 Z15.7779
N934 X384.2295 Z15.784 B30.005
N935 X384.2267 Z15.7901
N936 X384.2239 Z15.7962 B30.007
N937 X384.2211 Z15.8024
N938 X384.2184 Z15.8085 B30.009
N939 X384.2158 Z15.8146
N940 X384.2129 Z15.8213 B30.011
N941 X384.2101 Z15.828
N942 X384.2081 Z15.8328 B30.013
N943 X384.2061 Z15.8376
N944 X384.2042 Z15.8424
N945 X384.2023 Z15.8472 B30.016
N946 X384.2004 Z15.852
N947 X384.1985 Z15.8568
N948 X384.1964 Z15.8623 B30.019
N949 X384.1943 Z15.8679
N950 X384.1922 Z15.8734
N951 X384.1899 Z15.8796 B30.022
N952 X384.1877 Z15.8858
N953 X384.1855 Z15.8921
N954 X384.1836 Z15.8977 B30.027
N955 X384.1817 Z15.9033
N956 X384.1798 Z15.9089
N957 X384.1779 Z15.9145
N958 X384.1761 Z15.9201
N959 X384.1741 Z15.9264 B30.031
N960 X384.1722 Z15.9326
N961 X384.1703 Z15.9389
N962 X384.1684 Z15.9451
N963 X384.1666 Z15.9514 B30.034
N964 X384.1648 Z15.9576
N965 X384.1631 Z15.9639
N966 X384.1616 Z15.9694 B30.037
N967 X384.1601 Z15.9749
N968 X384.1587 Z15.9805
N969 X384.1575 Z15.9852 B30.039
N970 X384.1563 Z15.9898
N971 X384.1552 Z15.9945
N972 X384.1548 Z15.996
N973 X384.1545 Z15.9974
N974 X384.1539 Z15.9998 B30.04
N975 X384.1535 Z16.0012
N976 X384.1532 Z16.0027
N977 X384.1529 Z16.0042 B30.041
N978 X384.1525 Z16.0057
N979 X384.1522 Z16.0072
N980 X384.1518 Z16.0088
N981 X384.1515 Z16.0103 B30.042
N982 X384.1511 Z16.0119
N983 X384.1508 Z16.0135
N984 X384.1504 Z16.0151
N985 X384.1501 Z16.0167 B30.043
N986 X384.1497 Z16.0183
N987 X384.1494 Z16.02 B30.044
N988 X384.149 Z16.0217
N989 X384.1486 Z16.0233
N990 X384.1483 Z16.025
N991 X384.1479 Z16.0268 B30.045
N992 X384.1476 Z16.0285
N993 X384.1472 Z16.0302
N994 X384.1469 Z16.032
N995 X384.1465 Z16.0338 B30.046
N996 X384.1462 Z16.0356
N997 X384.1458 Z16.0374
N998 X384.1454 Z16.0392
N999 X384.1451 Z16.0411 B30.047
N1000 X384.1447 Z16.0429
N1001 X384.1444 Z16.0448 B30.048
N1002 X384.144 Z16.0467
N1003 X384.1437 Z16.0486
N1004 X384.1433 Z16.0505
N1005 X384.1429 Z16.0525 B30.049
N1006 X384.1426 Z16.0545
N1007 X384.1422 Z16.0564 B30.05
N1008 X384.1419 Z16.0584
N1009 X384.1415 Z16.0604
N1010 X384.1412 Z16.0625
N1011 X384.1408 Z16.0645 B30.051
N1012 X384.1405 Z16.0666
N1013 X384.1401 Z16.0686 B30.052
N1014 X384.1398 Z16.0707
N1015 X384.1394 Z16.0728
N1016 X384.139 Z16.075
N1017 X384.1387 Z16.0771 B30.053
N1018 X384.1383 Z16.0793
N1019 X384.138 Z16.0814 B30.054
N1020 X384.1376 Z16.0836
N1021 X384.1373 Z16.0858 B30.055
N1022 X384.1369 Z16.088
N1023 X384.1366 Z16.0903
N1024 X384.1363 Z16.0925
N1025 X384.1359 Z16.0948 B30.056
N1026 X384.1356 Z16.0971
N1027 X384.1352 Z16.0994 B30.057
N1028 X384.1349 Z16.1017
N1029 X384.1345 Z16.1041 B30.058
N1030 X384.1342 Z16.1064
N1031 X384.1339 Z16.1088
N1032 X384.1335 Z16.1112
N1033 X384.1332 Z16.1136 B30.059
N1034 X384.1328 Z16.116
N1035 X384.1325 Z16.1185 B30.06
N1036 X384.1322 Z16.1209
N1037 X384.1318 Z16.1234 B30.061
N1038 X384.1315 Z16.1258
N1039 X384.1312 Z16.1284 B30.062
N1040 X384.1309 Z16.1309
N1041 X384.1305 Z16.1334 B30.063
N1042 X384.1302 Z16.136
N1043 X384.1299 Z16.1385
N1044 X384.1296 Z16.1411
N1045 X384.1292 Z16.1437 B30.064
N1046 X384.1289 Z16.1463
N1047 X384.1286 Z16.149 B30.065
N1048 X384.1283 Z16.1516
N1049 X384.128 Z16.1543 B30.066
N1050 X384.1277 Z16.157
N1051 X384.1273 Z16.1597 B30.067
N1052 X384.127 Z16.1624
N1053 X384.1267 Z16.1651 B30.068
N1054 X384.1264 Z16.1679
N1055 X384.1261 Z16.1707 B30.069
N1056 X384.1258 Z16.1734
N1057 X384.1255 Z16.1762 B30.07
N1058 X384.1252 Z16.179
N1059 X384.1249 Z16.1819 B30.071
N1060 X384.1246 Z16.1847
N1061 X384.1243 Z16.1876 B30.072
N1062 X384.124 Z16.1905
N1063 X384.1237 Z16.1934 B30.073
N1064 X384.1234 Z16.1963
N1065 X384.1232 Z16.1992 B30.074
N1066 X384.1229 Z16.2022
N1067 X384.1226 Z16.2051
N1068 X384.1223 Z16.2081
N1069 X384.122 Z16.2111 B30.075
N1070 X384.1218 Z16.2141
N1071 X384.1215 Z16.2172 B30.077
N1072 X384.1212 Z16.2202
N1073 X384.1209 Z16.2233 B30.078
N1074 X384.1207 Z16.2264
N1075 X384.1204 Z16.2295 B30.079
N1076 X384.1201 Z16.2326
N1077 X384.1199 Z16.2357 B30.08
N1078 X384.1196 Z16.2388
N1079 X384.1194 Z16.242 B30.081
N1080 X384.1191 Z16.2452
N1081 X384.1189 Z16.2484 B30.082
N1082 X384.1186 Z16.2516
N1083 X384.1184 Z16.2548 B30.083
N1084 X384.1181 Z16.2581
N1085 X384.1179 Z16.2613 B30.084
N1086 X384.1176 Z16.2646
N1087 X384.1174 Z16.2679 B30.085
N1088 X384.1171 Z16.2712
N1089 X384.1169 Z16.2745 B30.086
N1090 X384.1167 Z16.2779
N1091 X384.1165 Z16.2812 B30.087
N1092 X384.1162 Z16.2846
N1093 X384.116 Z16.288 B30.088
N1094 X384.1158 Z16.2914
N1095 X384.1156 Z16.2949 B30.089
N1096 X384.1153 Z16.2983
N1097 X384.1151 Z16.3018 B30.091
N1098 X384.1149 Z16.3052
N1099 X384.1147 Z16.3087 B30.092
N1100 X384.1145 Z16.3122
N1101 X384.1143 Z16.3158 B30.093
N1102 X384.1141 Z16.3193
N1103 X384.1139 Z16.3229 B30.094
N1104 X384.1137 Z16.3264
N1105 X384.1135 Z16.33 B30.095
N1106 X384.1133 Z16.3336
N1107 X384.1131 Z16.3372 B30.096
N1108 X384.1129 Z16.3409
N1109 X384.1127 Z16.3445 B30.098
N1110 X384.1126 Z16.3482
N1111 X384.1124 Z16.3519 B30.099
N1112 X384.1122 Z16.3556
N1113 X384.112 Z16.3593 B30.1
N1114 X384.1118 Z16.3631
N1115 X384.1117 Z16.3668 B30.101
N1116 X384.1115 Z16.3706
N1117 X384.1113 Z16.3744 B30.103
N1118 X384.1112 Z16.3782
N1119 X384.111 Z16.382 B30.104
N1120 X384.1109 Z16.3858
N1121 X384.1107 Z16.3897 B30.105
N1122 X384.1106 Z16.3935
N1123 X384.1104 Z16.3974 B30.107
N1124 X384.1103 Z16.4013
N1125 X384.1101 Z16.4052 B30.108
N1126 X384.11 Z16.4092
N1127 X384.1098 Z16.4131 B30.109
N1128 X384.1097 Z16.4171
N1129 X384.1096 Z16.4211 B30.11
N1130 X384.1094 Z16.4251
N1131 X384.1093 Z16.4291 B30.112
N1132 X384.1092 Z16.4331
N1133 X384.1091 Z16.4372 B30.113
N1134 X384.1089 Z16.4412
N1135 X384.1088 Z16.4453 B30.114
N1136 X384.1087 Z16.4494
N1137 X384.1086 Z16.4535 B30.116
N1138 X384.1085 Z16.4576
N1139 X384.1084 Z16.4618 B30.117
N1140 X384.1083 Z16.4659
N1141 X384.1082 Z16.4701 B30.119
N1142 X384.1081 Z16.4743
N1143 X384.108 Z16.4785 B30.12
N1144 X384.1079 Z16.4827
N1145 X384.1078 Z16.487 B30.121
N1146 X384.1077 Z16.4912
N1147 X384.1076 Z16.4955 B30.123
N1148 X384.1075 Z16.4998
N1149 X384.1074 Z16.5041 B30.124
N1150 Z16.5084
N1151 X384.1073 Z16.5128 B30.126
N1152 X384.1072 Z16.5171
N1153 X384.1071 Z16.5215 B30.127
N1154 Z16.5259
N1155 X384.107 Z16.5303 B30.129
N1156 X384.1069 Z16.5347
N1157 Z16.5392 B30.13
N1158 X384.1068 Z16.5436
N1159 X384.1067 Z16.5481 B30.132
N1160 Z16.5526
N1161 X384.1066 Z16.5571 B30.133
N1162 Z16.5616
N1163 X384.1065 Z16.5661 B30.135
N1164 Z16.5707
N1165 Z16.5752 B30.136
N1166 X384.1064 Z16.5798
N1167 Z16.5844 B30.138
N1168 X384.1063 Z16.589
N1169 Z16.5937 B30.139
N1170 Z16.5983
N1171 X384.1062 Z16.6029 B30.141
N1172 Z16.6076
N1173 Z16.6123 B30.142
N1174 Z16.617
N1175 X384.1061 Z16.6218 B30.144
N1176 Z16.6265
N1177 Z16.6313 B30.145
N1178 Z16.636
N1179 Z16.6408 B30.147
N1180 Z16.6456
N1181 Z16.6505 B30.149
N1182 Z16.6553
N1183 Z16.6601 B30.15
N1184 X384.106 Z16.6649
N1185 Z16.6657
N1186 Z16.6661
N1187 Z16.667
N1188 X384.1061 Z16.6709 B30.152
N1189 Z16.6748
N1190 Z16.6797 B30.153
N1191 Z16.6847
N1192 Z16.6896 B30.155
N1193 Z16.6946
N1194 Z16.6996 B30.157
N1195 Z16.7046
N1196 Z16.7096 B30.158
N1197 Z16.7146
N1198 X384.1062 Z16.7196 B30.16
N1199 Z16.7247
N1200 Z16.7298 B30.162
N1201 Z16.7349
N1202 X384.1063 Z16.74 B30.163
N1203 Z16.7451
N1204 Z16.7503 B30.165
N1205 Z16.7554
N1206 X384.1064 Z16.7606 B30.167
N1207 Z16.7658
N1208 X384.1065 Z16.771 B30.169
N1209 Z16.7762
N1210 Z16.7815 B30.17
N1211 X384.1066 Z16.7867
N1212 Z16.792 B30.172
N1213 X384.1067 Z16.7973
N1214 Z16.8026 B30.174
N1215 Z16.8079
N1216 X384.1068 Z16.8132 B30.176
N1217 Z16.8186
N1218 X384.1069 Z16.8239 B30.177
N1219 Z16.8293
N1220 X384.107 Z16.8347 B30.179
N1221 X384.1071 Z16.8401
N1222 Z16.8455 B30.181
N1223 X384.1072 Z16.851
N1224 Z16.8564 B30.183
N1225 X384.1073 Z16.8619
N1226 Z16.8674 B30.185
N1227 X384.1074 Z16.8729
N1228 X384.1075 Z16.8784 B30.186
N1229 Z16.884
N1230 X384.1076 Z16.8895 B30.188
N1231 X384.1077 Z16.8951
N1232 Z16.9007 B30.19
N1233 X384.1078 Z16.9063
N1234 X384.1079 Z16.9119 B30.192
N1235 Z16.9176
N1236 X384.108 Z16.9232 B30.194
N1237 X384.1081 Z16.9289
N1238 Z16.9346 B30.196
N1239 X384.1082 Z16.9403
N1240 X384.1083 Z16.946 B30.198
N1241 X384.1084 Z16.9517
N1242 Z16.9574 B30.2
N1243 X384.1085 Z16.9632
N1244 X384.1086 Z16.967
N1245 X384.1096 Z17.0454 B30.213
N1246 Z17.0495 B30.214
N1247 X384.1097 Z17.0535 B30.215
N1248 X384.1098 Z17.0595 B30.217
N1249 Z17.0656
N1250 X384.1099 Z17.0716 B30.219
N1251 X384.11 Z17.0777
N1252 X384.1101 Z17.0838 B30.221
N1253 Z17.0899
N1254 X384.1102 Z17.096 B30.223
N1255 X384.1103 Z17.1021
N1256 X384.1104 Z17.1083 B30.225
N1257 Z17.1144
N1258 X384.1105 Z17.1206 B30.227
N1259 X384.1106 Z17.1268
N1260 X384.1107 Z17.133 B30.229
N1261 Z17.1392
N1262 X384.1108 Z17.1455 B30.231
N1263 X384.1109 Z17.1517
N1264 Z17.158 B30.233
N1265 X384.111 Z17.1643
N1266 X384.1111 Z17.1706 B30.235
N1267 X384.1112 Z17.1769
N1268 Z17.1833 B30.237
N1269 X384.1113 Z17.1896
N1270 Z17.196 B30.239
N1271 X384.1114 Z17.2024
N1272 X384.1131 Z17.376 B30.44
N1273 X384.1147 Z17.5496
N1274 X384.1162 Z17.7232
N1275 X384.1178 Z17.8968
N1276 X384.1192 Z18.0704
N1277 X384.1207 Z18.244
N1278 X384.122 Z18.4176
N1279 X384.1234 Z18.5898 B30.64
N1280 X384.1247 Z18.7619
N1281 X384.1259 Z18.934
N1282 X384.1271 Z19.1061
N1283 X384.1283 Z19.2782
N1284 X384.1294 Z19.4503
N1285 X384.1305 Z19.6225
N1286 X384.1316 Z19.7931 B30.838
N1287 X384.1326 Z19.9637
N1288 X384.1336 Z20.1344
N1289 X384.1345 Z20.305
N1290 X384.1354 Z20.4756
N1291 X384.1363 Z20.6463
N1292 X384.1371 Z20.8169
N1293 X384.1381 Z21.0159 B31.035
N1294 X384.1389 Z21.2149
N1295 X384.1398 Z21.4139
N1296 X384.1406 Z21.6129
N1297 X384.1414 Z21.8119
N1298 X384.1421 Z22.0109
N1299 X384.1428 Z22.207 B31.23
N1300 X384.1434 Z22.4031
N1301 X384.1441 Z22.5991
N1302 X384.1446 Z22.7952
N1303 X384.1452 Z22.9913
N1304 X384.1457 Z23.1874
N1305 X384.1463 Z23.4173 B31.497
N1306 X384.1468 Z23.6472
N1307 X384.1473 Z23.877
N1308 X384.1477 Z24.1069
N1309 X384.1481 Z24.3368
N1310 X384.1485 Z24.5667
N1311 X384.1488 Z24.7965
N1312 X384.1492 Z25.1199 B31.764
N1313 X384.1496 Z25.4432
N1314 X384.1499 Z25.7665
N1315 X384.1502 Z26.0898
N1316 X384.1504 Z26.4132
N1317 X384.1506 Z26.8129 B32.029
N1318 X384.1508 Z27.2126
N1319 X384.1509 Z27.6123
N1320 X384.151 Z28.012
N1321 Z28.0861 B32.041
N1322 Z28.1603 B32.054
N1323 Z28.2345 B32.066
N1324 Z28.3086 B32.078
N1325 Z28.3828 B32.091
N1326 Z28.457 B32.103
N1327 Z28.5311 B32.115
N1328 Z28.6053 B32.127
N1329 Z28.6794 B32.14
N1330 Z28.7536 B32.152
N1331 Z28.8277 B32.164
N1332 Z28.9019 B32.176
N1333 Z28.976 B32.189
N1334 Z29.0424 B32.2
N1335 Z29.1243 B32.213
N1336 Z29.1985 B32.226
N1337 Z29.2726 B32.238
N1338 Z29.3467 B32.25
N1339 Z29.4209 B32.262
N1340 Z29.495 B32.275
N1341 Z29.6433 B32.299
N1342 Z29.7174 B32.312
N1343 Z29.7916 B32.324
N1344 Z29.8657 B32.336
N1345 Z29.9398 B32.348
N1346 Z30.1059 B32.376
N1347 Z30.272 B32.403
N1348 Z30.4381 B32.431
N1349 Z30.6041 B32.458
N1350 Z30.7702 B32.486
N1351 Z30.9363 B32.513
N1352 Z31.1024 B32.541
N1353 Z31.2685 B32.568
N1354 X384.1509 Z31.4345 B32.596
N1355 Z31.6006 B32.623
N1356 Z31.7667 B32.651
N1357 Z31.9328 B32.678
N1358 Z32.0989 B32.706
N1359 Z32.2649 B32.733
N1360 X384.1508 Z32.431 B32.761
N1361 Z32.5971 B32.788
N1362 Z32.7632 B32.816
N1363 Z32.9292 B32.843
N1364 Z33.0953 B32.871
N1365 X384.1507 Z33.2614 B32.898
N1366 Z33.4275 B32.926
N1367 Z33.5935 B32.953
N1368 Z33.7596 B32.981
N1369 X384.1506 Z33.9257 B33.008
N1370 Z34.0917 B33.036
N1371 Z34.2578 B33.063
N1372 Z34.4239 B33.091
N1373 X384.1505 Z34.5899 B33.118
N1374 Z34.756 B33.146
N1375 Z34.9221 B33.173
N1376 X384.1504 Z35.0881 B33.201
N1377 Z35.2542 B33.228
N1378 Z35.4203 B33.256
N1379 Z35.5863 B33.283
N1380 X384.1503 Z35.7524 B33.311
N1381 Z35.9185 B33.338
N1382 Z36.0845 B33.366
N1383 X384.1502 Z36.2506 B33.393
N1384 Z36.4167 B33.421
N1385 Z36.5827 B33.448
N1386 X384.1501 Z37.0809 B33.531
N1387 Z37.247 B33.558
N1388 X384.15 Z37.413 B33.586
N1389 Z37.5791 B33.613
N1390 Z37.7451 B33.641
N1391 X384.1499 Z37.9112 B33.668
N1392 Z38.0773 B33.696
N1393 Z38.2433 B33.723
N1394 X384.1498 Z38.4094 B33.751
N1395 Z38.5754 B33.778
N1396 Z38.7415 B33.806
N1397 Z38.9075 B33.833
N1398 X384.1497 Z39.0736 B33.861
N1399 Z39.2396 B33.888
N1400 Z39.4057 B33.916
N1401 X384.1496 Z39.5718 B33.943
N1402 Z39.7378 B33.971
N1403 Z39.9039 B33.998
N1404 Z40.0699 B34.026
N1405 Z40.236 B34.053
N1406 X384.1495 Z40.402 B34.081
N1407 Z40.5681 B34.108
N1408 Z40.7341 B34.136
N1409 Z40.9002 B34.163
N1410 X384.1494 Z41.0662 B34.191
N1411 Z41.2323 B34.218
N1412 Z41.3983 B34.246
N1413 Z41.5644 B34.273
N1414 Z41.7304 B34.301
N1415 Z41.8964 B34.328
N1416 Z42.0625 B34.356
N1417 X384.1493 Z42.2285 B34.383
N1418 Z42.3946 B34.411
N1419 Z42.5606 B34.438
N1420 Z42.7267 B34.466
N1421 Z42.8927 B34.493
N1422 Z43.0588 B34.521
N1423 Z43.2248 B34.548
N1424 Z43.3908 B34.576
N1425 Z43.5569 B34.603
N1426 Z43.7229 B34.631
N1427 Z43.889 B34.658
N1428 Z44.055 B34.686
N1429 Z44.2211 B34.713
N1430 Z44.3871 B34.741
N1431 Z44.5531 B34.768
N1432 Z44.7192 B34.796
N1433 Z44.8852 B34.823
N1434 Z45.0513 B34.851
N1435 X384.1494 Z45.2173 B34.878
N1436 Z45.3833 B34.906
N1437 Z45.5494 B34.933
N1438 Z45.7154 B34.961
N1439 Z45.8814 B34.988
N1440 X384.1495 Z46.0475 B35.016
N1441 Z46.2135 B35.043
N1442 Z46.3795 B35.071
N1443 Z46.5456 B35.098
N1444 X384.1496 Z46.7116 B35.126
N1445 Z46.8776 B35.153
N1446 Z47.0437 B35.181
N1447 X384.1497 Z47.2097 B35.208
N1448 Z47.3757 B35.236
N1449 X384.1498 Z47.5418 B35.263
N1450 Z47.7078 B35.291
N1451 X384.1499 Z47.8738 B35.318
N1452 Z48.0399 B35.345
N1453 X384.15 Z48.2059 B35.373
N1454 Z48.3719 B35.4
N1455 X384.1501 Z48.538 B35.428
N1456 Z48.704 B35.455
N1457 X384.1502 Z48.87 B35.483
N1458 X384.1503 Z49.0361 B35.51
N1459 Z49.2021 B35.538
N1460 X384.1504 Z49.3681 B35.565
N1461 X384.1505 Z49.5341 B35.593
N1462 X384.1506 Z49.7002 B35.62
N1463 Z49.8662 B35.648
N1464 X384.1507 Z50.0322 B35.675
N1465 X384.1508 Z50.1983 B35.703
N1466 X384.1509 Z50.3643 B35.73
N1467 X384.151 Z50.5303 B35.758
N1468 X384.1511 Z50.6963 B35.785
N1469 X384.1512 Z50.8624 B35.813
N1470 X384.1513 Z51.0284 B35.84
N1471 X384.1514 Z51.1944 B35.868
N1472 X384.1515 Z51.3604 B35.895
N1473 X384.1516 Z51.5265 B35.923
N1474 X384.1517 Z51.6925 B35.95
N1475 X384.1518 Z51.8585 B35.978
N1476 X384.1519 Z52.0245 B36.005
N1477 X384.152 Z52.1906 B36.033
N1478 X384.1522 Z52.3566 B36.06
N1479 X384.1523 Z52.5226 B36.088
N1480 X384.1524 Z52.6886 B36.115
N1481 X384.1526 Z52.8547 B36.143
N1482 X384.1527 Z53.0207 B36.17
N1483 X384.1528 Z53.1867 B36.198
N1484 X384.153 Z53.3527 B36.225
N1485 X384.1531 Z53.5187 B36.253
N1486 X384.1533 Z53.6848 B36.28
N1487 X384.1535 Z53.8508 B36.308
N1488 X384.1536 Z54.0168 B36.335
N1489 X384.1538 Z54.1828 B36.363
N1490 X384.1539 Z54.3488 B36.39
N1491 X384.1541 Z54.5149 B36.418
N1492 X384.1543 Z54.6809 B36.445
N1493 X384.1545 Z54.8469 B36.473
N1494 X384.1546 Z55.0129 B36.5
N1495 X384.1548 Z55.1789 B36.528
N1496 X384.155 Z55.345 B36.555
N1497 X384.1552 Z55.511 B36.583
N1498 X384.1554 Z55.677 B36.61
N1499 X384.1556 Z55.843 B36.638
N1500 X384.1558 Z56.009 B36.665
N1501 X384.156 Z56.175 B36.693
N1502 X384.1563 Z56.3411 B36.72
N1503 X384.1565 Z56.5071 B36.748
N1504 X384.1567 Z56.6731 B36.775
N1505 X384.1569 Z56.8391 B36.803
N1506 X384.1572 Z57.0051 B36.83
N1507 X384.1574 Z57.1711 B36.858
N1508 X384.1576 Z57.3372 B36.885
N1509 X384.1579 Z57.5032 B36.913
N1510 X384.1581 Z57.6692 B36.94
N1511 X384.1584 Z57.8352 B36.967
N1512 X384.1586 Z58.0012 B36.995
N1513 X384.1589 Z58.1672 B37.022
N1514 X384.1592 Z58.3332 B37.05
N1515 X384.1594 Z58.4993 B37.077
N1516 X384.1597 Z58.6653 B37.105
N1517 X384.16 Z58.8311 B37.132
N1518 X384.1623 Z60.1053 B37.343
N1519 X384.163 Z60.4334 B37.506
N1520 X384.1637 Z60.7616
N1521 X384.1644 Z61.0898
N1522 X384.1654 Z61.5206 B37.934
N1523 X384.1664 Z61.9514
N1524 X384.1675 Z62.3822
N1525 X384.1686 Z62.813
N1526 X384.1698 Z63.2438
N1527 X384.171 Z63.6745
N1528 X384.1721 Z64.0438 B38.362
N1529 X384.1732 Z64.413
N1530 X384.1744 Z64.7822
N1531 X384.1756 Z65.1515
N1532 X384.1768 Z65.5207
N1533 X384.1781 Z65.8899
N1534 X384.1795 Z66.2592
N1535 Z66.2685 B38.366
N1536 Z66.2779
N1537 X384.1796 Z66.2904 B38.37
N1538 Z66.3028
N1539 X384.1797 Z66.3153 B38.374
N1540 Z66.3278
N1541 X384.1798 Z66.3404 B38.378
N1542 X384.1799 Z66.3529
N1543 Z66.3654 B38.382
N1544 X384.18 Z66.3779
N1545 X384.1801 Z66.3905 B38.386
N1546 X384.1802 Z66.403
N1547 Z66.4156 B38.39
N1548 X384.1803 Z66.4281
N1549 X384.1804 Z66.4407 B38.395
N1550 X384.1805 Z66.4533
N1551 X384.1806 Z66.4659 B38.399
N1552 Z66.4784
N1553 X384.1807 Z66.491 B38.403
N1554 X384.1808 Z66.5036
N1555 X384.1809 Z66.5163 B38.407
N1556 X384.181 Z66.5289
N1557 X384.1811 Z66.5415 B38.411
N1558 X384.1812 Z66.5541
N1559 X384.1813 Z66.5668 B38.415
N1560 X384.1814 Z66.5794
N1561 X384.1815 Z66.5921 B38.42
N1562 X384.1816 Z66.6048
N1563 X384.1817 Z66.6174 B38.424
N1564 X384.1819 Z66.6301
N1565 X384.182 Z66.6428 B38.428
N1566 X384.1821 Z66.6555
N1567 X384.1822 Z66.6682 B38.432
N1568 X384.1823 Z66.6809
N1569 X384.1824 Z66.6936 B38.436
N1570 X384.1825 Z66.7063
N1571 X384.1827 Z66.7191 B38.441
N1572 X384.1828 Z66.7318
N1573 X384.1829 Z66.7445 B38.445
N1574 X384.183 Z66.7573
N1575 X384.1832 Z66.7701 B38.449
N1576 X384.1833 Z66.7828
N1577 X384.1834 Z66.7956 B38.453
N1578 X384.1836 Z66.8084
N1579 X384.1837 Z66.8212 B38.458
N1580 X384.1838 Z66.834
N1581 X384.184 Z66.8468 B38.462
N1582 X384.1841 Z66.8596
N1583 X384.1842 Z66.8724 B38.466
N1584 X384.1844 Z66.8852
N1585 X384.1845 Z66.8981 B38.47
N1586 X384.1846 Z66.9109
N1587 X384.1848 Z66.9235 B38.475
N1588 X384.1849 Z66.9362
N1589 X384.1905 Z67.43 B38.556
N1590 X384.1906 Z67.4304
N1591 X384.1907 Z67.4435 B38.561
N1592 X384.1908 Z67.4567
N1593 X384.191 Z67.4698 B38.565
N1594 X384.1911 Z67.483
N1595 X384.1913 Z67.4962 B38.569
N1596 X384.1914 Z67.5093
N1597 X384.1915 Z67.5225 B38.574
N1598 X384.1917 Z67.5357
N1599 X384.1918 Z67.5489 B38.578
N1600 X384.192 Z67.5621
N1601 X384.1921 Z67.5753 B38.583
N1602 X384.1922 Z67.5885
N1603 X384.1924 Z67.6017 B38.587
N1604 X384.1925 Z67.6149
N1605 X384.1926 Z67.6282 B38.591
N1606 X384.1928 Z67.6414
N1607 X384.1929 Z67.6547 B38.596
N1608 X384.193 Z67.6679
N1609 X384.1931 Z67.6812 B38.6
N1610 X384.1933 Z67.6945
N1611 X384.1934 Z67.7077 B38.604
N1612 X384.1935 Z67.721
N1613 X384.1936 Z67.7343 B38.609
N1614 X384.1937 Z67.7476
N1615 X384.1939 Z67.7609 B38.613
N1616 X384.194 Z67.7742
N1617 X384.1941 Z67.7876 B38.618
N1618 X384.1942 Z67.8009
N1619 X384.1943 Z67.8142 B38.622
N1620 X384.1944 Z67.8276
N1621 X384.1945 Z67.8409 B38.627
N1622 X384.1946 Z67.8543
N1623 X384.1947 Z67.8676 B38.631
N1624 X384.1948 Z67.881
N1625 X384.1949 Z67.8944 B38.635
N1626 X384.195 Z67.9078
N1627 X384.1951 Z67.9212 B38.64
N1628 X384.1952 Z67.9346
N1629 X384.1953 Z67.948 B38.644
N1630 X384.1954 Z67.9614
N1631 Z67.9748 B38.649
N1632 X384.1955 Z67.9882
N1633 X384.1956 Z68.0017 B38.653
N1634 X384.1957 Z68.0151
N1635 X384.1958 Z68.0286 B38.658
N1636 Z68.042
N1637 X384.1959 Z68.0555 B38.662
N1638 X384.196 Z68.0689
N1639 Z68.0824 B38.667
N1640 X384.1961 Z68.0959
N1641 Z68.1094 B38.671
N1642 X384.1962 Z68.1229
N1643 X384.1963 Z68.1364 B38.675
N1644 Z68.1499
N1645 Z68.1634 B38.68
N1646 X384.1964 Z68.177
N1647 Z68.1905 B38.684
N1648 X384.1965 Z68.204
N1649 Z68.2176 B38.689
N1650 Z68.2311
N1651 X384.1966 Z68.2718 B38.709
N1652 X384.1967 Z68.3125
N1653 Z68.3532
N1654 Z68.3536
N1655 Z68.3604 B38.711
N1656 Z68.3672
N1657 Z68.3807 B38.716
N1658 X384.1966 Z68.3943
N1659 Z68.408 B38.72
N1660 Z68.4216
N1661 Z68.4353 B38.725
N1662 Z68.4489
N1663 X384.1965 Z68.4626 B38.73
N1664 Z68.4763
N1665 Z68.49 B38.734
N1666 X384.1964 Z68.5037
N1667 Z68.5174 B38.739
N1668 X384.1963 Z68.5311
N1669 Z68.5448 B38.743
N1670 X384.1962 Z68.5585
N1671 Z68.5723 B38.748
N1672 X384.1961 Z68.586
N1673 X384.196 Z68.5997 B38.752
N1674 X384.1959 Z68.6135
N1675 Z68.6273 B38.757
N1676 X384.1958 Z68.641
N1677 X384.1957 Z68.6548 B38.761
N1678 X384.1956 Z68.6686
N1679 X384.1955 Z68.6823 B38.766
N1680 X384.1954 Z68.6961
N1681 X384.1953 Z68.7099 B38.771
N1682 X384.1952 Z68.7237
N1683 X384.1951 Z68.7376 B38.775
N1684 X384.1949 Z68.7514
N1685 X384.1948 Z68.7652 B38.78
N1686 X384.1947 Z68.779
N1687 X384.1945 Z68.7929 B38.784
N1688 X384.1944 Z68.8067
N1689 X384.1942 Z68.8206 B38.789
N1690 X384.1941 Z68.8345
N1691 X384.1939 Z68.8483 B38.793
N1692 X384.1938 Z68.8622
N1693 X384.1936 Z68.8761 B38.798
N1694 X384.1934 Z68.89
N1695 X384.1932 Z68.9039 B38.803
N1696 X384.1931 Z68.9178
N1697 X384.1929 Z68.9317 B38.807
N1698 X384.1927 Z68.9456
N1699 X384.1925 Z68.9595 B38.812
N1700 X384.1923 Z68.9734
N1701 X384.1921 Z68.9874 B38.816
N1702 X384.1918 Z69.0013
N1703 X384.1916 Z69.0153 B38.821
N1704 X384.1914 Z69.0293
N1705 X384.1911 Z69.0432 B38.826
N1706 X384.1909 Z69.0572
N1707 X384.1907 Z69.0712 B38.83
N1708 X384.1904 Z69.0852
N1709 X384.1901 Z69.0992 B38.835
N1710 X384.1899 Z69.1132
N1711 X384.1896 Z69.1272 B38.84
N1712 X384.1893 Z69.1412
N1713 X384.189 Z69.1552 B38.844
N1714 X384.1887 Z69.1692
N1715 X384.1884 Z69.1833 B38.849
N1716 X384.1881 Z69.1973
N1717 X384.1878 Z69.2114 B38.854
N1718 X384.1875 Z69.2254
N1719 X384.1872 Z69.2395 B38.858
N1720 X384.1869 Z69.2535
N1721 X384.1865 Z69.2676 B38.863
N1722 X384.1862 Z69.2817
N1723 X384.1858 Z69.2958 B38.868
N1724 X384.1855 Z69.3099
N1725 X384.1851 Z69.324 B38.872
N1726 X384.1847 Z69.3381
N1727 X384.1844 Z69.3522 B38.877
N1728 X384.184 Z69.3664
N1729 X384.1836 Z69.3805 B38.882
N1730 X384.1832 Z69.3946
N1731 X384.1828 Z69.4088 B38.886
N1732 X384.1824 Z69.4229
N1733 X384.1819 Z69.4371 B38.891
N1734 X384.1815 Z69.4513
N1735 X384.1811 Z69.4654 B38.896
N1736 X384.1806 Z69.4796
N1737 X384.1802 Z69.4938 B38.9
N1738 X384.1797 Z69.508
N1739 X384.1793 Z69.5222 B38.905
N1740 X384.1788 Z69.5364
N1741 X384.1783 Z69.5506 B38.91
N1742 X384.1778 Z69.5648
N1743 X384.1773 Z69.5791 B38.915
N1744 X384.1768 Z69.5933
N1745 X384.1763 Z69.6076 B38.919
N1746 X384.1758 Z69.6218
N1747 X384.1753 Z69.6361 B38.924
N1748 X384.1747 Z69.6503
N1749 X384.1742 Z69.6646 B38.929
N1750 X384.1736 Z69.6789
N1751 X384.1731 Z69.6932 B38.933
N1752 X384.1725 Z69.7074
N1753 X384.1719 Z69.7217 B38.938
N1754 X384.1713 Z69.736
N1755 X384.1707 Z69.7504 B38.943
N1756 X384.1701 Z69.7647
N1757 X384.1695 Z69.779 B38.948
N1758 X384.1689 Z69.7933
N1759 X384.1683 Z69.8077 B38.952
N1760 X384.1677 Z69.822
N1761 X384.167 Z69.8364 B38.957
N1762 X384.1664 Z69.8507
N1763 X384.1657 Z69.8651 B38.962
N1764 X384.165 Z69.8795
N1765 X384.1643 Z69.8938 B38.967
N1766 X384.1637 Z69.9082
N1767 X384.163 Z69.9226 B38.971
N1768 X384.1622 Z69.937
N1769 X384.1615 Z69.9514 B38.976
N1770 X384.1608 Z69.9658
N1771 X384.1601 Z69.9803 B38.981
N1772 X384.1593 Z69.9947
N1773 X384.1586 Z70.0091 B38.986
N1774 X384.1578 Z70.0236
N1775 X384.157 Z70.038 B38.991
N1776 X384.1563 Z70.0525
N1777 X384.1555 Z70.0669 B38.995
N1778 X384.1547 Z70.0814
N1779 X384.1539 Z70.0959 B39
N1780 X384.153 Z70.1104
N1781 X384.1522 Z70.1249 B39.005
N1782 X384.1514 Z70.1393
N1783 X384.1505 Z70.1538 B39.01
N1784 X384.1497 Z70.1684
N1785 X384.1488 Z70.1829 B39.015
N1786 X384.1479 Z70.1974
N1787 X384.147 Z70.2119 B39.019
N1788 X384.1461 Z70.2265
N1789 X384.1452 Z70.241 B39.024
N1790 X384.1443 Z70.2555
N1791 X384.1434 Z70.2701 B39.029
N1792 X384.1424 Z70.2847
N1793 X384.1415 Z70.2993 B39.034
N1794 X384.1405 Z70.3138
N1795 X384.1395 Z70.3284 B39.039
N1796 X384.1386 Z70.343
N1797 X384.1376 Z70.3576 B39.044
N1798 X384.1366 Z70.3722
N1799 X384.1356 Z70.3868 B39.048
N1800 X384.1345 Z70.4014
N1801 X384.1335 Z70.4161 B39.053
N1802 X384.1324 Z70.4307
N1803 X384.1314 Z70.4453 B39.058
N1804 X384.1303 Z70.46
N1805 X384.1292 Z70.4746 B39.063
N1806 X384.1281 Z70.4893
N1807 X384.127 Z70.504 B39.068
N1808 X384.1259 Z70.5186
N1809 X384.1248 Z70.5333 B39.073
N1810 X384.1237 Z70.548
N1811 X384.1225 Z70.5627 B39.078
N1812 X384.1214 Z70.5774
N1813 X384.1202 Z70.5921 B39.082
N1814 X384.119 Z70.6068
N1815 X384.1178 Z70.6215 B39.087
N1816 X384.1166 Z70.6362
N1817 X384.1154 Z70.651 B39.092
N1818 X384.1142 Z70.6657
N1819 X384.1129 Z70.6805 B39.097
N1820 X384.1117 Z70.6952
N1821 X384.1104 Z70.71 B39.102
N1822 X384.1091 Z70.7247
N1823 X384.1079 Z70.7395 B39.107
N1824 X384.1066 Z70.7543
N1825 X384.1052 Z70.7691 B39.112
N1826 X384.1039 Z70.7839
N1827 X384.1026 Z70.7987 B39.117
N1828 X384.1012 Z70.8135
N1829 X384.0999 Z70.8283 B39.122
N1830 X384.0985 Z70.8431
N1831 X384.0971 Z70.8579 B39.126
N1832 X384.0957 Z70.8728
N1833 X384.0943 Z70.8876 B39.131
N1834 X384.0929 Z70.9025
N1835 X384.0914 Z70.9173 B39.136
N1836 X384.09 Z70.9322
N1837 X384.0885 Z70.9471 B39.141
N1838 X384.0871 Z70.9619
N1839 X384.0856 Z70.9768 B39.146
N1840 X384.0841 Z70.9917
N1841 X384.0825 Z71.0066 B39.151
N1842 X384.081 Z71.0215
N1843 X384.0795 Z71.0364 B39.156
N1844 X384.0779 Z71.0513
N1845 X384.0764 Z71.0662 B39.161
N1846 X384.0748 Z71.0812
N1847 X384.0732 Z71.0961 B39.166
N1848 X384.0716 Z71.111
N1849 X384.07 Z71.126 B39.171
N1850 X384.0683 Z71.1409
N1851 X384.0667 Z71.1559 B39.176
N1852 X384.065 Z71.1709
N1853 X384.0633 Z71.1858 B39.181
N1854 X384.0616 Z71.2008
N1855 X384.0599 Z71.2158 B39.186
N1856 X384.0582 Z71.2308
N1857 X384.0565 Z71.2458 B39.191
N1858 X384.0547 Z71.2608
N1859 X384.053 Z71.2758 B39.196
N1860 X384.0512 Z71.2908
N1861 X384.0494 Z71.3059 B39.201
N1862 X384.0476 Z71.3209
N1863 X384.0458 Z71.3359 B39.206
N1864 X384.044 Z71.351
N1865 X384.0421 Z71.366 B39.211
N1866 X384.0403 Z71.3811
N1867 X384.0384 Z71.3962 B39.216
N1868 X384.0365 Z71.4112
N1869 X384.0346 Z71.4263 B39.221
N1870 X384.0327 Z71.4414
N1871 X384.0307 Z71.4565 B39.226
N1872 X384.0288 Z71.4716
N1873 X384.0268 Z71.4867 B39.231
N1874 X384.0249 Z71.5018
N1875 X384.0229 Z71.517 B39.236
N1876 X384.0209 Z71.5321
N1877 X384.0188 Z71.5472 B39.241
N1878 X384.0168 Z71.5623
N1879 X384.0147 Z71.5775 B39.246
N1880 X384.0127 Z71.5926
N1881 X384.0106 Z71.6078 B39.251
N1882 X384.0085 Z71.623
N1883 X384.0064 Z71.6381 B39.256
N1884 X384.0042 Z71.6533
N1885 X384.0021 Z71.6685 B39.261
N1886 X383.9999 Z71.6837
N1887 X383.9977 Z71.6989 B39.266
N1888 X383.9955 Z71.7141
N1889 X383.9933 Z71.7293 B39.271
N1890 X383.9911 Z71.7445
N1891 X383.9889 Z71.7598 B39.276
N1892 X383.9866 Z71.775
N1893 X383.9843 Z71.7902 B39.281
N1894 X383.982 Z71.8055
N1895 X383.9797 Z71.8207 B39.286
N1896 X383.9774 Z71.836
N1897 X383.9751 Z71.8512 B39.291
N1898 X383.9727 Z71.8665
N1899 X383.9703 Z71.8818 B39.296
N1900 X383.9679 Z71.8971
N1901 X383.9655 Z71.9124 B39.302
N1902 X383.9631 Z71.9276
N1903 X383.9607 Z71.943 B39.307
N1904 X383.9582 Z71.9583
N1905 X383.9557 Z71.9736 B39.312
N1906 X383.9533 Z71.9889
N1907 X383.9507 Z72.0042 B39.317
N1908 X383.9482 Z72.0196
N1909 X383.9457 Z72.0349 B39.322
N1910 X383.9431 Z72.0503
N1911 X383.9405 Z72.0656 B39.327
N1912 X383.9379 Z72.081
N1913 X383.9353 Z72.0963 B39.332
N1914 X383.9327 Z72.1117
N1915 X383.9301 Z72.1271 B39.337
N1916 X383.9274 Z72.1425
N1917 X383.9247 Z72.1579 B39.342
N1918 X383.922 Z72.1733
N1919 X383.9193 Z72.1887 B39.347
N1920 X383.9166 Z72.2041
N1921 X383.9138 Z72.2195 B39.353
N1922 X383.911 Z72.2349
N1923 X383.9083 Z72.2504 B39.358
N1924 X383.9054 Z72.2658
N1925 X383.9026 Z72.2813 B39.363
N1926 X383.8998 Z72.2967
N1927 X383.8969 Z72.3122 B39.368
N1928 X383.894 Z72.3276
N1929 X383.8911 Z72.3431 B39.373
N1930 X383.8882 Z72.3586
N1931 X383.8853 Z72.3741 B39.378
N1932 X383.8823 Z72.3895
N1933 X383.8794 Z72.405 B39.383
N1934 X383.8764 Z72.4205
N1935 X383.8734 Z72.436 B39.389
N1936 X383.8703 Z72.4516
N1937 X383.8673 Z72.4671 B39.394
N1938 X383.8642 Z72.4826
N1939 X383.8611 Z72.4981 B39.399
N1940 X383.858 Z72.5137
N1941 X383.8549 Z72.5292 B39.404
N1942 X383.8518 Z72.5448
N1943 X383.8486 Z72.5603 B39.409
N1944 X383.8454 Z72.5759
N1945 X383.8422 Z72.5915 B39.414
N1946 X383.839 Z72.607
N1947 X383.8357 Z72.6226 B39.42
N1948 X383.8325 Z72.6382
N1949 X383.8292 Z72.6538 B39.425
N1950 X383.8259 Z72.6694
N1951 X383.8226 Z72.685 B39.43
N1952 X383.8193 Z72.7006
N1953 X383.8159 Z72.7163 B39.435
N1954 X383.8125 Z72.7319
N1955 X383.8091 Z72.7475 B39.44
N1956 X383.8057 Z72.7632
N1957 X383.8023 Z72.7788 B39.446
N1958 X383.7988 Z72.7944
N1959 X383.7953 Z72.8101 B39.451
N1960 X383.7918 Z72.8258
N1961 X383.7883 Z72.8414 B39.456
N1962 X383.7848 Z72.8571
N1963 X383.7812 Z72.8728 B39.461
N1964 X383.7776 Z72.8885
N1965 X383.774 Z72.9042 B39.467
N1966 X383.7704 Z72.9199
N1967 X383.7667 Z72.9356 B39.472
N1968 X383.7631 Z72.9513
N1969 X383.7594 Z72.967 B39.477
N1970 X383.7557 Z72.9827
N1971 X383.7519 Z72.9985 B39.482
N1972 X383.7482 Z73.0142
N1973 X383.7444 Z73.03 B39.488
N1974 X383.7406 Z73.0457
N1975 X383.7368 Z73.0615 B39.493
N1976 X383.733 Z73.0772
N1977 X383.7291 Z73.093 B39.498
N1978 X383.7252 Z73.1088
N1979 X383.7213 Z73.1245 B39.503
N1980 X383.7174 Z73.1403
N1981 X383.7135 Z73.1561 B39.509
N1982 X383.7095 Z73.1719
N1983 X383.7055 Z73.1877 B39.514
N1984 X383.7015 Z73.2035
N1985 X383.6975 Z73.2194 B39.519
N1986 X383.6934 Z73.2352
N1987 X383.6894 Z73.251 B39.524
N1988 X383.6853 Z73.2668
N1989 X383.6811 Z73.2827 B39.53
N1990 X383.677 Z73.2985
N1991 X383.6728 Z73.3144 B39.535
N1992 X383.6686 Z73.3302
N1993 X383.6644 Z73.3461 B39.54
N1994 X383.6602 Z73.362
N1995 X383.6559 Z73.3778 B39.546
N1996 X383.6517 Z73.3937
N1997 X383.6474 Z73.4096 B39.551
N1998 X383.643 Z73.4255
N1999 X383.6387 Z73.4414 B39.556
N2000 X383.6343 Z73.4573
N2001 X383.6299 Z73.4732 B39.562
N2002 X383.6255 Z73.4891
N2003 X383.6211 Z73.5051 B39.567
N2004 X383.6166 Z73.521
N2005 X383.6121 Z73.5369 B39.572
N2006 X383.6076 Z73.5529
N2007 X383.6031 Z73.5688 B39.578
N2008 X383.5985 Z73.5847
N2009 X383.5939 Z73.6007 B39.583
N2010 X383.5893 Z73.6167
N2011 X383.5847 Z73.6326 B39.588
N2012 X383.5801 Z73.6486
N2013 X383.5754 Z73.6646 B39.594
N2014 X383.5707 Z73.6806
N2015 X383.566 Z73.6966 B39.599
N2016 X383.5612 Z73.7126
N2017 X383.5564 Z73.7286 B39.604
N2018 X383.5517 Z73.7446
N2019 X383.5468 Z73.7606 B39.61
N2020 X383.542 Z73.7766
N2021 X383.5371 Z73.7926 B39.615
N2022 X383.5322 Z73.8087
N2023 X383.5273 Z73.8247 B39.62
N2024 X383.5224 Z73.8407
N2025 X383.5174 Z73.8568 B39.626
N2026 X383.5124 Z73.8728
N2027 X383.5074 Z73.8889 B39.631
N2028 X383.5023 Z73.905
N2029 X383.4973 Z73.9211 B39.637
N2030 X383.4922 Z73.9371
N2031 X383.4871 Z73.9532 B39.642
N2032 X383.4819 Z73.9693
N2033 X383.4768 Z73.9854 B39.647
N2034 X383.4716 Z74.0015
N2035 X383.4663 Z74.0176 B39.653
N2036 X383.4611 Z74.0337
N2037 X383.4558 Z74.0498 B39.658
N2038 X383.4505 Z74.0659
N2039 X383.4452 Z74.0821 B39.664
N2040 X383.4399 Z74.0982
N2041 X383.4345 Z74.1143 B39.669
N2042 X383.4291 Z74.1305
N2043 X383.4237 Z74.1466 B39.674
N2044 X383.4182 Z74.1628
N2045 X383.4128 Z74.1789 B39.68
N2046 X383.4073 Z74.1951
N2047 X383.4017 Z74.2113 B39.685
N2048 X383.3962 Z74.2274
N2049 X383.3906 Z74.2436 B39.691
N2050 X383.385 Z74.2598
N2051 X383.3794 Z74.276 B39.696
N2052 X383.3737 Z74.2922
N2053 X383.368 Z74.3084 B39.702
N2054 X383.3623 Z74.3246
N2055 X383.3581 Z74.3364 B39.706
N2056 X383.3539 Z74.3482
N2057 X383.3483 Z74.3639 B39.711
N2058 X383.3427 Z74.3796
N2059 X383.3371 Z74.3953 B39.716
N2060 X383.3314 Z74.4109
N2061 X383.3257 Z74.4266 B39.721
N2062 X383.32 Z74.4423
N2063 X383.3143 Z74.4579 B39.727
N2064 X383.3086 Z74.4735
N2065 X383.3028 Z74.4891 B39.732
N2066 X383.297 Z74.5047
N2067 X383.2912 Z74.5203 B39.737
N2068 X383.2854 Z74.5359
N2069 X383.2795 Z74.5515 B39.742
N2070 X383.2736 Z74.567
N2071 X383.2678 Z74.5826 B39.748
N2072 X383.2618 Z74.5981
N2073 X383.2559 Z74.6137 B39.753
N2074 X383.25 Z74.6292
N2075 X383.244 Z74.6447 B39.758
N2076 X383.238 Z74.6602
N2077 X383.232 Z74.6756 B39.763
N2078 X383.226 Z74.6911
N2079 X383.2199 Z74.7066 B39.769
N2080 X383.2139 Z74.722
N2081 X383.2078 Z74.7375 B39.774
N2082 X383.2017 Z74.7529
N2083 X383.1956 Z74.7683 B39.779
N2084 X383.1894 Z74.7837
N2085 X383.1833 Z74.7991 B39.784
N2086 X383.1771 Z74.8145
N2087 X383.1709 Z74.8299 B39.789
N2088 X383.1647 Z74.8452
N2089 X383.1584 Z74.8606 B39.795
N2090 X383.1522 Z74.8759
N2091 X383.1459 Z74.8912 B39.8
N2092 X383.1396 Z74.9065
N2093 X383.1333 Z74.9218 B39.805
N2094 X383.127 Z74.9371
N2095 X383.1206 Z74.9524 B39.81
N2096 X383.1143 Z74.9677
N2097 X383.1079 Z74.983 B39.815
N2098 X383.1015 Z74.9982
N2099 X383.0951 Z75.0134 B39.82
N2100 X383.0887 Z75.0287
N2101 X383.0822 Z75.0439 B39.826
N2102 X383.0758 Z75.0591
N2103 X383.0693 Z75.0743 B39.831
N2104 X383.0628 Z75.0895
N2105 X383.0562 Z75.1046 B39.836
N2106 X383.0497 Z75.1198
N2107 X383.0432 Z75.135 B39.841
N2108 X383.0366 Z75.1501
N2109 X383.03 Z75.1652 B39.846
N2110 X383.0234 Z75.1803
N2111 X383.0168 Z75.1955 B39.851
N2112 X383.0102 Z75.2106
N2113 X383.0035 Z75.2256 B39.856
N2114 X382.9968 Z75.2407
N2115 X382.9902 Z75.2558 B39.861
N2116 X382.9835 Z75.2708
N2117 X382.9767 Z75.2859 B39.867
N2118 X382.97 Z75.3009
N2119 X382.9633 Z75.3159 B39.872
N2120 X382.9565 Z75.3309
N2121 X382.9497 Z75.3459 B39.877
N2122 X382.9429 Z75.3609
N2123 X382.9361 Z75.3759 B39.882
N2124 X382.9293 Z75.3909
N2125 X382.9224 Z75.4058 B39.887
N2126 X382.9156 Z75.4208
N2127 X382.9087 Z75.4357 B39.892
N2128 X382.9018 Z75.4506
N2129 X382.8949 Z75.4655 B39.897
N2130 X382.888 Z75.4804
N2131 X382.8811 Z75.4953 B39.902
N2132 X382.8741 Z75.5102
N2133 X382.8672 Z75.525 B39.907
N2134 X382.8602 Z75.5399
N2135 X382.8532 Z75.5548 B39.912
N2136 X382.8462 Z75.5696
N2137 X382.8392 Z75.5844 B39.917
N2138 X382.8321 Z75.5992
N2139 X382.8251 Z75.614 B39.922
N2140 X382.818 Z75.6288
N2141 X382.811 Z75.6436 B39.927
N2142 X382.8039 Z75.6584
N2143 X382.7968 Z75.6731 B39.932
N2144 X382.7896 Z75.6879
N2145 X382.7825 Z75.7026 B39.937
N2146 X382.7754 Z75.7174
N2147 X382.7682 Z75.7321 B39.942
N2148 X382.761 Z75.7468
N2149 X382.7539 Z75.7615 B39.947
N2150 X382.7467 Z75.7762
N2151 X382.7394 Z75.7908 B39.952
N2152 X382.7322 Z75.8055
N2153 X382.725 Z75.8201 B39.957
N2154 X382.7177 Z75.8348
N2155 X382.7105 Z75.8494 B39.962
N2156 X382.7032 Z75.8641
N2157 X382.6959 Z75.8787 B39.967
N2158 X382.6886 Z75.8933
N2159 X382.6813 Z75.9078 B39.972
N2160 X382.674 Z75.9224
N2161 X382.6666 Z75.937 B39.977
N2162 X382.6593 Z75.9516
N2163 X382.6519 Z75.9661 B39.982
N2164 X382.6445 Z75.9806
N2165 X382.6371 Z75.9952 B39.987
N2166 X382.6297 Z76.0097
N2167 X382.6223 Z76.0242 B39.992
N2168 X382.6149 Z76.0387
N2169 X382.6075 Z76.0532 B39.997
N2170 X382.6 Z76.0676
N2171 X382.5958 Z76.0758 B40
N2172 X382.5916 Z76.084
N2173 X382.5883 Z76.0903 B40.002
N2174 X382.5851 Z76.0966
N2175 X382.5776 Z76.111 B40.005
N2176 X382.5701 Z76.1254
N2177 X382.5626 Z76.1399 B40.009
N2178 X382.5551 Z76.1543
N2179 X382.5476 Z76.1687 B40.012
N2180 X382.54 Z76.1831
N2181 X382.5325 Z76.1974 B40.016
N2182 X382.5249 Z76.2118
N2183 X382.5173 Z76.2262 B40.019
N2184 X382.5097 Z76.2405
N2185 X382.5021 Z76.2548 B40.023
N2186 X382.4945 Z76.2692
N2187 X382.4869 Z76.2835 B40.027
N2188 X382.4793 Z76.2978
N2189 X382.4717 Z76.3121 B40.03
N2190 X382.464 Z76.3264
N2191 X382.4564 Z76.3407 B40.034
N2192 X382.4487 Z76.3549
N2193 X382.441 Z76.3692 B40.037
N2194 X382.4333 Z76.3834
N2195 X382.4256 Z76.3977 B40.041
N2196 X382.4179 Z76.4119
N2197 X382.4102 Z76.4261 B40.044
N2198 X382.4025 Z76.4403
N2199 X382.3947 Z76.4545 B40.048
N2200 X382.387 Z76.4687
N2201 X382.3792 Z76.4828 B40.051
N2202 X382.3715 Z76.497
N2203 X382.3637 Z76.5112 B40.055
N2204 X382.3559 Z76.5253
N2205 X382.3481 Z76.5394 B40.058
N2206 X382.3403 Z76.5536
N2207 X382.3325 Z76.5677 B40.062
N2208 X382.3247 Z76.5818
N2209 X382.3169 Z76.5959 B40.065
N2210 X382.309 Z76.6099
N2211 X382.3012 Z76.624 B40.069
N2212 X382.2933 Z76.6381
N2213 X382.2854 Z76.6521 B40.072
N2214 X382.2776 Z76.6662
N2215 X382.2697 Z76.6802 B40.076
N2216 X382.2618 Z76.6942
N2217 X382.2539 Z76.7082 B40.079
N2218 X382.246 Z76.7222
N2219 X382.2381 Z76.7362 B40.083
N2220 X382.2301 Z76.7502
N2221 X382.2222 Z76.7642 B40.086
N2222 X382.2143 Z76.7781
N2223 X382.2063 Z76.7921 B40.09
N2224 X382.1984 Z76.806
N2225 X382.1904 Z76.8199 B40.093
N2226 X382.1824 Z76.8339
N2227 X382.1745 Z76.8478 B40.097
N2228 X382.1665 Z76.8617
N2229 X382.1585 Z76.8756 B40.1
N2230 X382.1505 Z76.8894
N2231 X382.1425 Z76.9033 B40.104
N2232 X382.1344 Z76.9172
N2233 X382.1264 Z76.931 B40.107
N2234 X382.1184 Z76.9449
N2235 X382.1103 Z76.9587 B40.111
N2236 X382.1023 Z76.9725
N2237 X382.0942 Z76.9863 B40.114
N2238 X382.0862 Z77.0001
N2239 X382.0781 Z77.0139 B40.118
N2240 X382.07 Z77.0277
N2241 X382.062 Z77.0415 B40.121
N2242 X382.0539 Z77.0552
N2243 X382.0458 Z77.069 B40.125
N2244 X382.0377 Z77.0827
N2245 X382.0296 Z77.0964 B40.128
N2246 X382.0215 Z77.1102
N2247 X382.0133 Z77.1239 B40.131
N2248 X382.0052 Z77.1376
N2249 X381.9971 Z77.1513 B40.135
N2250 X381.9889 Z77.1649
N2251 X381.9808 Z77.1786 B40.138
N2252 X381.9726 Z77.1923
N2253 X381.9645 Z77.2059 B40.142
N2254 X381.9563 Z77.2196
N2255 X381.9482 Z77.2332 B40.145
N2256 X381.94 Z77.2468
N2257 X381.9318 Z77.2604 B40.149
N2258 X381.9236 Z77.274
N2259 X381.9154 Z77.2876 B40.152
N2260 X381.9072 Z77.3012
N2261 X381.899 Z77.3148 B40.155
N2262 X381.8908 Z77.3284
N2263 X381.8826 Z77.3419 B40.159
N2264 X381.8744 Z77.3555
N2265 X381.8662 Z77.369 B40.162
N2266 X381.858 Z77.3825
N2267 X381.8497 Z77.396 B40.166
N2268 X381.8415 Z77.4095
N2269 X381.8332 Z77.423 B40.169
N2270 X381.825 Z77.4365
N2271 X381.8167 Z77.45 B40.172
N2272 X381.8085 Z77.4635
N2273 X381.8002 Z77.4769 B40.176
N2274 X381.792 Z77.4904
N2275 X381.7837 Z77.5038 B40.179
N2276 X381.7754 Z77.5172
N2277 X381.7671 Z77.5307 B40.183
N2278 X381.7588 Z77.5441
N2279 X381.7506 Z77.5575 B40.186
N2280 X381.7423 Z77.5709
N2281 X381.734 Z77.5842 B40.189
N2282 X381.7257 Z77.5976
N2283 X381.7174 Z77.611 B40.193
N2284 X381.7091 Z77.6243
N2285 X381.7008 Z77.6377 B40.196
N2286 X381.6924 Z77.651
N2287 X381.6841 Z77.6643 B40.199
N2288 X381.6758 Z77.6776
N2289 X381.6675 Z77.6909 B40.203
N2290 X381.6591 Z77.7042
N2291 X381.6508 Z77.7175 B40.206
N2292 X381.6425 Z77.7308
N2293 X381.6341 Z77.7441 B40.209
N2294 X381.6258 Z77.7573
N2295 X381.6174 Z77.7706 B40.213
N2296 X381.6091 Z77.7838
N2297 X381.6007 Z77.797 B40.216
N2298 X381.5924 Z77.8103
N2299 X381.584 Z77.8235 B40.219
N2300 X381.5757 Z77.8367
N2301 X381.5673 Z77.8499 B40.223
N2302 X381.5589 Z77.863
N2303 X381.5506 Z77.8762 B40.226
N2304 X381.5422 Z77.8894
N2305 X381.5338 Z77.9025 B40.229
N2306 X381.5254 Z77.9157
N2307 X381.517 Z77.9288 B40.233
N2308 X381.5087 Z77.9419
N2309 X381.5003 Z77.955 B40.236
N2310 X381.4919 Z77.9682
N2311 X381.4835 Z77.9813 B40.239
N2312 X381.4751 Z77.9944
N2313 X381.4667 Z78.0074 B40.243
N2314 X381.4583 Z78.0205
N2315 X381.4499 Z78.0336 B40.246
N2316 X381.4415 Z78.0466
N2317 X381.4331 Z78.0597 B40.249
N2318 X381.4247 Z78.0727
N2319 X381.4163 Z78.0857 B40.252
N2320 X381.4079 Z78.0987
N2321 X381.3995 Z78.1117 B40.256
N2322 X381.3911 Z78.1247
N2323 X381.3827 Z78.1377 B40.259
N2324 X381.3742 Z78.1507
N2325 X381.3658 Z78.1637 B40.262
N2326 X381.3574 Z78.1766
N2327 X381.349 Z78.1896 B40.266
N2328 X381.3406 Z78.2025
N2329 X381.3322 Z78.2155 B40.269
N2330 X381.3237 Z78.2284
N2331 X381.3153 Z78.2413 B40.272
N2332 X381.3069 Z78.2542
N2333 X381.2985 Z78.2671 B40.275
N2334 X381.29 Z78.28
N2335 X381.2816 Z78.2929 B40.279
N2336 X381.2732 Z78.3057
N2337 X381.2648 Z78.3186 B40.282
N2338 X381.2563 Z78.3314
N2339 X381.2479 Z78.3443 B40.285
N2340 X381.2395 Z78.3571
N2341 X381.231 Z78.3699 B40.288
N2342 X381.2226 Z78.3827
N2343 X381.2142 Z78.3955 B40.292
N2344 X381.2057 Z78.4083
N2345 X381.1973 Z78.4211 B40.295
N2346 X381.1889 Z78.4339
N2347 X381.1804 Z78.4467 B40.298
N2348 X381.172 Z78.4594
N2349 X381.1636 Z78.4722 B40.301
N2350 X381.1551 Z78.4849
N2351 X381.1467 Z78.4976 B40.305
N2352 X381.1383 Z78.5104
N2353 X381.1127 Z78.5489 B40.314
N2354 X381.0872 Z78.5874
N2355 X381.0573 Z78.6324 B40.331
N2356 X381.0274 Z78.6773
N2357 X380.9975 Z78.7223
N2358 X380.9676 Z78.7672 B40.348
N2359 X380.9376 Z78.8121
N2360 X380.9076 Z78.8571
N2361 X380.8776 Z78.902 B40.366
N2362 X380.8475 Z78.9469
N2363 X380.8175 Z78.9919
N2364 X380.7874 Z79.0368 B40.383
N2365 X380.7573 Z79.0817
N2366 X380.7271 Z79.1266
N2367 X380.697 Z79.1715 B40.4
N2368 X380.6668 Z79.2165
N2369 X380.6365 Z79.2614
N2370 X380.6063 Z79.3063 B40.417
N2371 X380.576 Z79.3512
N2372 X380.5457 Z79.3961
N2373 X380.5154 Z79.441 B40.434
N2374 X380.485 Z79.4859
N2375 X380.4547 Z79.5308
N2376 X380.4243 Z79.5757 B40.451
N2377 X380.3938 Z79.6206
N2378 X380.3634 Z79.6654
N2379 X380.3329 Z79.7103 B40.468
N2380 X380.3024 Z79.7552
N2381 X380.2719 Z79.8001
N2382 X380.2413 Z79.845 B40.485
N2383 X380.2108 Z79.8898
N2384 X380.1802 Z79.9347
N2385 X380.1495 Z79.9796 B40.502
N2386 X380.1189 Z80.0245
N2387 X380.0882 Z80.0693
N2388 X380.0575 Z80.1142 B40.519
N2389 X380.0268 Z80.159
N2390 X379.996 Z80.2039
N2391 X379.9652 Z80.2487 B40.537
N2392 X379.9344 Z80.2936
N2393 X379.9036 Z80.3384
N2394 X379.8727 Z80.3833 B40.554
N2395 X379.8418 Z80.4281
N2396 X379.8109 Z80.473
N2397 X379.78 Z80.5178 B40.571
N2398 X379.749 Z80.5626
N2399 X379.7181 Z80.6075
N2400 X379.687 Z80.6523 B40.588
N2401 X379.656 Z80.6971
N2402 X379.625 Z80.742
N2403 X379.5939 Z80.7868 B40.605
N2404 X379.5628 Z80.8316
N2405 X379.5316 Z80.8764
N2406 X379.5005 Z80.9212 B40.622
N2407 X379.4693 Z80.966
N2408 X379.4381 Z81.0108
N2409 X379.4068 Z81.0556 B40.639
N2410 X379.3756 Z81.1005
N2411 X379.3443 Z81.1453
N2412 X379.313 Z81.1901 B40.656
N2413 X379.2817 Z81.2348
N2414 X379.2503 Z81.2796
N2415 X379.2189 Z81.3244 B40.673
N2416 X379.1875 Z81.3692
N2417 X379.1561 Z81.414
N2418 X379.1246 Z81.4588 B40.691
N2419 X379.0931 Z81.5036
N2420 X379.0616 Z81.5483
N2421 X379.0301 Z81.5931 B40.708
N2422 X378.9985 Z81.6379
N2423 X378.967 Z81.6827
N2424 X378.9353 Z81.7274 B40.725
N2425 X378.9037 Z81.7722
N2426 X378.8721 Z81.817
N2427 X378.8404 Z81.8617 B40.742
N2428 X378.8087 Z81.9065
N2429 X378.7769 Z81.9512
N2430 X378.7452 Z81.996 B40.759
N2431 X378.7134 Z82.0407
N2432 X378.6816 Z82.0855
N2433 X378.6602 Z82.1155 B40.767
N2434 X378.6389 Z82.1455
N2435 X378.6104 Z82.1856 B40.777
N2436 X378.5818 Z82.2256
N2437 X378.5533 Z82.2656 B40.787
N2438 X378.5247 Z82.3056
N2439 X378.4962 Z82.3457 B40.797
N2440 X378.4676 Z82.3857
N2441 X378.439 Z82.4257 B40.808
N2442 X378.4103 Z82.4657
N2443 X378.3817 Z82.5057 B40.818
N2444 X378.353 Z82.5457
N2445 X378.3243 Z82.5857 B40.828
N2446 X378.2956 Z82.6257
N2447 X378.2669 Z82.6657 B40.838
N2448 X378.2382 Z82.7057
N2449 X378.2094 Z82.7457 B40.848
N2450 X378.1806 Z82.7857
N2451 X378.1518 Z82.8256 B40.859
N2452 X378.123 Z82.8656
N2453 X378.0942 Z82.9056 B40.869
N2454 X378.0654 Z82.9456
N2455 X378.0365 Z82.9855 B40.879
N2456 X378.0076 Z83.0255
N2457 X377.9788 Z83.0654 B40.889
N2458 X377.9498 Z83.1054
N2459 X377.9209 Z83.1454 B40.899
N2460 X377.892 Z83.1853
N2461 X377.863 Z83.2252 B40.91
N2462 X377.834 Z83.2652
N2463 X377.805 Z83.3051 B40.92
N2464 X377.776 Z83.3451
N2465 X377.747 Z83.385 B40.93
N2466 X377.718 Z83.4249
N2467 X377.6889 Z83.4649 B40.94
N2468 X377.6598 Z83.5048
N2469 X377.6307 Z83.5447 B40.951
N2470 X377.6016 Z83.5846
N2471 X377.5725 Z83.6245 B40.961
N2472 X377.5433 Z83.6644
N2473 X377.5142 Z83.7044 B40.971
N2474 X377.485 Z83.7443
N2475 X377.4558 Z83.7842 B40.981
N2476 X377.4266 Z83.824
N2477 X377.3974 Z83.8639 B40.991
N2478 X377.3681 Z83.9038
N2479 X377.3389 Z83.9437 B41.002
N2480 X377.3096 Z83.9836
N2481 X377.2803 Z84.0235 B41.012
N2482 X377.251 Z84.0634
N2483 X377.2217 Z84.1032 B41.022
N2484 X377.1924 Z84.1431
N2485 X377.163 Z84.183 B41.032
N2486 X377.1336 Z84.2228
N2487 X377.1042 Z84.2627 B41.042
N2488 X377.0748 Z84.3025
N2489 X377.0454 Z84.3424 B41.053
N2490 X377.016 Z84.3822
N2491 X376.9865 Z84.4221 B41.063
N2492 X376.9571 Z84.462
N2493 X376.9276 Z84.5018 B41.073
N2494 X376.8981 Z84.5416
N2495 X376.8686 Z84.5814 B41.083
N2496 X376.8391 Z84.6213
N2497 X376.8095 Z84.6611 B41.094
N2498 X376.7799 Z84.701
N2499 X376.7504 Z84.7408 B41.104
N2500 X376.7208 Z84.7806
N2501 X376.6912 Z84.8204 B41.114
N2502 X376.6616 Z84.8602
N2503 X376.6319 Z84.9 B41.124
N2504 X376.6023 Z84.9398
N2505 X376.5726 Z84.9796 B41.134
N2506 X376.5429 Z85.0194
N2507 X376.5132 Z85.0592 B41.145
N2508 X376.4835 Z85.0991
N2509 X376.4538 Z85.1388 B41.155
N2510 X376.4241 Z85.1786
N2511 X376.3943 Z85.2184 B41.165
N2512 X376.3645 Z85.2581
N2513 X376.3348 Z85.2979 B41.175
N2514 X376.305 Z85.3377
N2515 X376.2751 Z85.3775 B41.185
N2516 X376.2453 Z85.4173
N2517 X376.2155 Z85.457 B41.196
N2518 X376.1856 Z85.4967
N2519 X376.1557 Z85.5365 B41.206
N2520 X376.1259 Z85.5763
N2521 X376.0959 Z85.616 B41.216
N2522 X376.066 Z85.6558
N2523 X376.0361 Z85.6955 B41.226
N2524 X376.0062 Z85.7352
N2525 X375.9762 Z85.775 B41.237
N2526 X375.9462 Z85.8147
N2527 X375.9162 Z85.8544 B41.247
N2528 X375.8862 Z85.8942
N2529 X375.8562 Z85.9339 B41.257
N2530 X375.8262 Z85.9736
N2531 X375.7961 Z86.0134 B41.267
N2532 X375.7661 Z86.0531
N2533 X375.736 Z86.0928 B41.277
N2534 X375.7059 Z86.1325
N2535 X375.6758 Z86.1722 B41.288
N2536 X375.6457 Z86.2119
N2537 X375.6156 Z86.2516 B41.298
N2538 X375.5854 Z86.2913
N2539 X375.5553 Z86.331 B41.308
N2540 X375.5251 Z86.3707
N2541 X375.4949 Z86.4104 B41.318
N2542 X375.4647 Z86.4501
N2543 X375.4345 Z86.4898 B41.328
N2544 X375.4043 Z86.5294
N2545 X375.374 Z86.5691 B41.339
N2546 X375.3437 Z86.6088
N2547 X375.3135 Z86.6485 B41.349
N2548 X375.2832 Z86.6881
N2549 X375.2529 Z86.7278 B41.359
N2550 X375.2226 Z86.7675
N2551 X375.1923 Z86.8071 B41.369
N2552 X375.162 Z86.8468
N2553 X375.1316 Z86.8864 B41.379
N2554 X375.1013 Z86.9261
N2555 X375.0709 Z86.9657 B41.39
N2556 X375.0404 Z87.0054
N2557 X375.0101 Z87.045 B41.4
N2558 X374.9797 Z87.0846
N2559 X374.9492 Z87.1243 B41.41
N2560 X374.9188 Z87.164
N2561 X374.8883 Z87.2036 B41.42
N2562 X374.8579 Z87.2432
N2563 X374.8274 Z87.2828 B41.43
N2564 X374.7969 Z87.3224
N2565 X374.7664 Z87.362 B41.441
N2566 X374.7359 Z87.4016
N2567 X374.7054 Z87.4412 B41.451
N2568 X374.6748 Z87.4809
N2569 X374.6443 Z87.5205 B41.461
N2570 X374.6137 Z87.5601
N2571 X374.5831 Z87.5997 B41.471
N2572 X374.5525 Z87.6393
N2573 X374.5219 Z87.6788 B41.482
N2574 X374.4913 Z87.7184
N2575 X374.4607 Z87.758 B41.492
N2576 X374.43 Z87.7976
N2577 X374.3994 Z87.8372 B41.502
N2578 X374.3687 Z87.8768
N2579 X374.338 Z87.9163 B41.512
N2580 X374.3073 Z87.9559
N2581 X374.2766 Z87.9955 B41.522
N2582 X374.2459 Z88.0351
N2583 X374.2152 Z88.0746 B41.533
N2584 X374.1845 Z88.1142
N2585 X374.1537 Z88.1537 B41.543
N2586 X374.1229 Z88.1933
N2587 X374.0921 Z88.2329 B41.553
N2588 X374.0613 Z88.2724
N2589 X374.0306 Z88.312 B41.563
N2590 X373.9998 Z88.3515
N2591 X373.9689 Z88.391 B41.573
N2592 X373.9381 Z88.4306
N2593 X373.9072 Z88.4701 B41.584
N2594 X373.8764 Z88.5096
N2595 X373.8455 Z88.5491 B41.594
N2596 X373.8146 Z88.5887
N2597 X373.7837 Z88.6282 B41.604
N2598 X373.7528 Z88.6677
N2599 X373.7219 Z88.7072 B41.614
N2600 X373.691 Z88.7467
N2601 X373.6601 Z88.7863 B41.624
N2602 X373.6291 Z88.8258
N2603 X373.5981 Z88.8653 B41.635
N2604 X373.5672 Z88.9048
N2605 X373.5362 Z88.9443 B41.645
N2606 X373.5052 Z88.9838
N2607 X373.4742 Z89.0233 B41.655
N2608 X373.4432 Z89.0628
N2609 X373.4121 Z89.1022 B41.665
N2610 X373.3811 Z89.1417
N2611 X373.3656 Z89.1615 B41.668
N2612 X373.3457 Z89.1867 B41.671
N2613 X373.2925 Z89.2544 B41.697
N2614 X373.2392 Z89.322
N2615 X373.1859 Z89.3896
N2616 X373.1326 Z89.4572 B41.723
N2617 X373.0793 Z89.5248
N2618 X373.026 Z89.5924
N2619 X372.9727 Z89.6599 B41.75
N2620 X372.9193 Z89.7274
N2621 X372.8659 Z89.7949
N2622 X372.8124 Z89.8625 B41.776
N2623 X372.7589 Z89.9301
N2624 X372.7054 Z89.9977
N2625 X372.6518 Z90.0653 B41.802
N2626 X372.5982 Z90.1328
N2627 X372.5446 Z90.2004
N2628 X372.491 Z90.2679 B41.828
N2629 X372.4373 Z90.3354
N2630 X372.3836 Z90.4029
N2631 X372.33 Z90.4704 B41.854
N2632 X372.2762 Z90.5379
N2633 X372.2225 Z90.6054
N2634 X372.1687 Z90.6729 B41.881
N2635 X372.1148 Z90.7405
N2636 X372.0609 Z90.808
N2637 X372.007 Z90.8755 B41.907
N2638 X371.953 Z90.943
N2639 X371.8991 Z91.0105
N2640 X371.8451 Z91.078 B41.933
N2641 X371.7911 Z91.1455
N2642 X371.737 Z91.2129
N2643 X371.6829 Z91.2804 B41.959
N2644 X371.6288 Z91.3479
N2645 X371.5747 Z91.4153
N2646 X371.5205 Z91.4828 B41.985
N2647 X371.4663 Z91.5502
N2648 X371.4121 Z91.6177
N2649 X371.3578 Z91.6851 B42.012
N2650 X371.3035 Z91.7526
N2651 X371.2492 Z91.82
N2652 X371.1949 Z91.8874 B42.038
N2653 X371.1405 Z91.9549
N2654 X371.0861 Z92.0223
N2655 X371.0317 Z92.0897 B42.064
N2656 X370.9772 Z92.1571
N2657 X370.9228 Z92.2244
N2658 X370.8682 Z92.2919 B42.09
N2659 X370.8136 Z92.3593
N2660 X370.759 Z92.4267
N2661 X370.7044 Z92.4941 B42.117
N2662 X370.6498 Z92.5615
N2663 X370.5951 Z92.6289
N2664 X370.5404 Z92.6962 B42.143
N2665 X370.4857 Z92.7636
N2666 X370.431 Z92.8309
N2667 X370.3761 Z92.8983 B42.169
N2668 X370.3213 Z92.9657
N2669 X370.2664 Z93.0331
N2670 X370.2115 Z93.1004 B42.195
N2671 X370.1567 Z93.1677
N2672 X370.1018 Z93.2349
N2673 X370.0467 Z93.3023 B42.221
N2674 X369.9917 Z93.3697
N2675 X369.9366 Z93.4371
N2676 X369.8816 Z93.5043 B42.248
N2677 X369.8265 Z93.5716
N2678 X369.7714 Z93.6389
N2679 X369.7162 Z93.7062 B42.274
N2680 X369.661 Z93.7736
N2681 X369.6058 Z93.8409
N2682 X369.5506 Z93.9081 B42.3
N2683 X369.4953 Z93.9754
N2684 X369.4401 Z94.0426
N2685 X369.3847 Z94.1099 B42.326
N2686 X369.3293 Z94.1772
N2687 X369.2738 Z94.2445
N2688 X369.2184 Z94.3118 B42.353
N2689 X369.163 Z94.379
N2690 X369.1075 Z94.4463
N2691 X369.052 Z94.5135 B42.379
N2692 X368.9964 Z94.5808
N2693 X368.9408 Z94.648
N2694 X368.8853 Z94.7152 B42.405
N2695 X368.8297 Z94.7824
N2696 X368.774 Z94.8495
N2697 X368.7183 Z94.9168 B42.431
N2698 X368.6625 Z94.984
N2699 X368.6067 Z95.0513
N2700 X368.551 Z95.1184 B42.458
N2701 X368.4952 Z95.1856
N2702 X368.4394 Z95.2527
N2703 X368.3835 Z95.3199 B42.484
N2704 X368.3275 Z95.3871
N2705 X368.2716 Z95.4543
N2706 X368.2156 Z95.5215 B42.51
N2707 X368.1596 Z95.5886
N2708 X368.1036 Z95.6558
N2709 X368.0475 Z95.7229 B42.536
N2710 X367.9914 Z95.7901
N2711 X367.9353 Z95.8572
N2712 X367.8792 Z95.9243 B42.563
N2713 X367.823 Z95.9914
N2714 X367.7668 Z96.0585
N2715 X367.7105 Z96.1256 B42.589
N2716 X367.6543 Z96.1927
N2717 X367.598 Z96.2598
N2718 X367.5417 Z96.3269 B42.615
N2719 X367.4853 Z96.3939
N2720 X367.429 Z96.461
N2721 X367.3725 Z96.5281 B42.641
N2722 X367.316 Z96.5952
N2723 X367.2595 Z96.6623
N2724 X367.203 Z96.7294 B42.668
N2725 X367.1465 Z96.7964
N2726 X367.0899 Z96.8634
N2727 X367.0333 Z96.9305 B42.694
N2728 X366.9766 Z96.9975
N2729 X366.92 Z97.0645
N2730 X366.8633 Z97.1315 B42.72
N2731 X366.8066 Z97.1985
N2732 X366.7499 Z97.2655
N2733 X366.6931 Z97.3325 B42.746
N2734 X366.6362 Z97.3995
N2735 X366.5794 Z97.4666
N2736 X366.5225 Z97.5335 B42.772
N2737 X366.4657 Z97.6004
N2738 X366.4088 Z97.6673
N2739 X366.3518 Z97.7343 B42.799
N2740 X366.2947 Z97.8014
N2741 X366.2376 Z97.8684
N2742 X366.1806 Z97.9353 B42.825
N2743 X366.1235 Z98.0022
N2744 X366.0664 Z98.0692
N2745 X366.0092 Z98.1361 B42.851
N2746 X365.952 Z98.203
N2747 X365.8948 Z98.2699
N2748 X365.8376 Z98.3368 B42.877
N2749 X365.7803 Z98.4037
N2750 X365.723 Z98.4706
N2751 X365.6657 Z98.5375 B42.904
N2752 X365.6084 Z98.6043
N2753 X365.551 Z98.6712
N2754 X365.4936 Z98.7381 B42.93
N2755 X365.4361 Z98.805
N2756 X365.3786 Z98.8719
N2757 X365.3211 Z98.9387 B42.956
N2758 X365.2636 Z99.0055
N2759 X365.206 Z99.0722
N2760 X365.1484 Z99.1391 B42.982
N2761 X365.0907 Z99.206
N2762 X365.033 Z99.2728
N2763 X364.9753 Z99.3397 B43.009
N2764 X364.9176 Z99.4065
N2765 X364.8598 Z99.4733
N2766 X364.802 Z99.54 B43.035
N2767 X364.7442 Z99.6068
N2768 X364.6864 Z99.6736
N2769 X364.6285 Z99.7403 B43.061
N2770 X364.5706 Z99.8071
N2771 X364.5127 Z99.8738
N2772 X364.4547 Z99.9406 B43.087
N2773 X364.3967 Z100.0073
N2774 X364.3386 Z100.0741
N2775 X364.2806 Z100.1408 B43.114
N2776 X364.2225 Z100.2074
N2777 X364.1645 Z100.2741
N2778 X364.1063 Z100.3409 B43.14
N2779 X364.048 Z100.4076
N2780 X363.9898 Z100.4744
N2781 X363.9315 Z100.541 B43.166
N2782 X363.8733 Z100.6077
N2783 X363.815 Z100.6743
N2784 X363.7566 Z100.741 B43.192
N2785 X363.6982 Z100.8077
N2786 X363.6398 Z100.8744
N2787 X363.5814 Z100.941 B43.219
N2788 X363.5229 Z101.0076
N2789 X363.4644 Z101.0743
N2790 X363.4059 Z101.1409 B43.245
N2791 X363.3473 Z101.2075
N2792 X363.2888 Z101.2741
N2793 X363.2302 Z101.3407 B43.271
N2794 X363.1716 Z101.4072
N2795 X363.1129 Z101.4737
N2796 X363.0542 Z101.5404 B43.297
N2797 X362.9954 Z101.607
N2798 X362.9366 Z101.6736
N2799 X362.8778 Z101.7402 B43.324
N2800 X362.819 Z101.8067
N2801 X362.7601 Z101.8732
N2802 X362.7012 Z101.9398 B43.35
N2803 X362.6423 Z102.0063
N2804 X362.5833 Z102.0728
N2805 X362.5243 Z102.1393 B43.376
N2806 X362.4653 Z102.2058
N2807 X362.4063 Z102.2723
N2808 X362.3472 Z102.3388 B43.402
N2809 X362.2881 Z102.4053
N2810 X362.2289 Z102.4718
N2811 X362.1698 Z102.5382 B43.429
N2812 X362.1106 Z102.6047
N2813 X362.0513 Z102.6711
N2814 X361.9921 Z102.7376 B43.455
N2815 X361.9328 Z102.804
N2816 X361.8734 Z102.8704
N2817 X361.8141 Z102.9368 B43.481
N2818 X361.7547 Z103.0032
N2819 X361.6953 Z103.0696
N2820 X361.6736 Z103.0939 B43.484
N2821 X361.652 Z103.118 B43.487
N2822 X361.6014 Z103.1745 B43.51
N2823 X361.5507 Z103.2311
N2824 X361.5 Z103.2876
N2825 X361.4493 Z103.3441 B43.532
N2826 X361.3986 Z103.4006
N2827 X361.3479 Z103.457
N2828 X361.2971 Z103.5135 B43.554
N2829 X361.2463 Z103.57
N2830 X361.1955 Z103.6264
N2831 X361.1447 Z103.6829 B43.577
N2832 X361.0938 Z103.7393
N2833 X361.0429 Z103.7958
N2834 X360.992 Z103.8522 B43.599
N2835 X360.9411 Z103.9086
N2836 X360.8902 Z103.9651
N2837 X360.8392 Z104.0215 B43.621
N2838 X360.7882 Z104.0779
N2839 X360.7372 Z104.1343
N2840 X360.6862 Z104.1907 B43.644
N2841 X360.6351 Z104.2471
N2842 X360.584 Z104.3035
N2843 X360.5329 Z104.3598 B43.666
N2844 X360.4818 Z104.4162
N2845 X360.4306 Z104.4726
N2846 X360.3794 Z104.5289 B43.688
N2847 X360.3282 Z104.5853
N2848 X360.277 Z104.6416
N2849 X360.2258 Z104.698 B43.711
N2850 X360.1745 Z104.7543
N2851 X360.1232 Z104.8106
N2852 X360.0719 Z104.867 B43.733
N2853 X360.0205 Z104.9233
N2854 X359.9692 Z104.9796
N2855 X359.9178 Z105.0359 B43.755
N2856 X359.8664 Z105.0922
N2857 X359.815 Z105.1485
N2858 X359.7635 Z105.2048 B43.778
N2859 X359.712 Z105.261
N2860 X359.6605 Z105.3173
N2861 X359.609 Z105.3736 B43.8
N2862 X359.5575 Z105.4298
N2863 X359.5059 Z105.4861
N2864 X359.4543 Z105.5423 B43.822
N2865 X359.4027 Z105.5986
N2866 X359.3511 Z105.6548
N2867 X359.2994 Z105.711 B43.845
N2868 X359.2478 Z105.7673
N2869 X359.1961 Z105.8235
N2870 X359.1443 Z105.8797 B43.867
N2871 X359.0926 Z105.9359
N2872 X359.0408 Z105.9921
N2873 X358.989 Z106.0483 B43.889
N2874 X358.9372 Z106.1045
N2875 X358.8854 Z106.1607
N2876 X358.8335 Z106.2168 B43.912
N2877 X358.7816 Z106.273
N2878 X358.7297 Z106.3292
N2879 X358.6778 Z106.3853 B43.934
N2880 X358.6259 Z106.4415
N2881 X358.5739 Z106.4976
N2882 X358.5219 Z106.5537 B43.956
N2883 X358.4699 Z106.6099
N2884 X358.4178 Z106.666
N2885 X358.3658 Z106.7221 B43.978
N2886 X358.3137 Z106.7782
N2887 X358.2616 Z106.8343
N2888 X358.2095 Z106.8904 B44.001
N2889 X358.1573 Z106.9465
N2890 X358.1052 Z107.0026
N2891 X358.053 Z107.0587 B44.023
N2892 X358.0008 Z107.1148
N2893 X357.9485 Z107.1708
N2894 X357.8963 Z107.2269 B44.045
N2895 X357.844 Z107.2829
N2896 X357.7917 Z107.339
N2897 X357.7393 Z107.395 B44.068
N2898 X357.687 Z107.4511
N2899 X357.6346 Z107.5071
N2900 X357.5822 Z107.5631 B44.09
N2901 X357.5298 Z107.6192
N2902 X357.4774 Z107.6752
N2903 X357.4249 Z107.7312 B44.112
N2904 X357.3725 Z107.7872
N2905 X357.32 Z107.8432
N2906 X357.2674 Z107.8992 B44.135
N2907 X357.2149 Z107.9552
N2908 X357.1623 Z108.0111
N2909 X357.1097 Z108.0671 B44.157
N2910 X357.0571 Z108.1231
N2911 X357.0045 Z108.179
N2912 X356.9518 Z108.235 B44.179
N2913 X356.8992 Z108.2909
N2914 X356.8465 Z108.3469
N2915 X356.7937 Z108.4028 B44.202
N2916 X356.741 Z108.4587
N2917 X356.6882 Z108.5147
N2918 X356.6354 Z108.5706 B44.224
N2919 X356.5826 Z108.6265
N2920 X356.5298 Z108.6824
N2921 X356.477 Z108.7383 B44.246
N2922 X356.4241 Z108.7942
N2923 X356.3712 Z108.8501
N2924 X356.3183 Z108.906 B44.268
N2925 X356.2653 Z108.9618
N2926 X356.2124 Z109.0177
N2927 X356.1594 Z109.0736 B44.291
N2928 X356.1064 Z109.1294
N2929 X356.0534 Z109.1853
N2930 X356.0003 Z109.2411 B44.313
N2931 X355.9473 Z109.297
N2932 X355.8942 Z109.3528
N2933 X355.8411 Z109.4086 B44.335
N2934 X355.7879 Z109.4644
N2935 X355.7348 Z109.5203
N2936 X355.6816 Z109.5761 B44.358
N2937 X355.6284 Z109.6319
N2938 X355.5752 Z109.6877
N2939 X355.522 Z109.7435 B44.38
N2940 X355.4687 Z109.7993
N2941 X355.4154 Z109.855
N2942 X355.3621 Z109.9108 B44.402
N2943 X355.3088 Z109.9666
N2944 X355.2555 Z110.0223
N2945 X355.2021 Z110.0781 B44.424
N2946 X355.1487 Z110.1339
N2947 X355.0953 Z110.1896
N2948 X355.0419 Z110.2453 B44.447
N2949 X354.9884 Z110.3011
N2950 X354.935 Z110.3568
N2951 X354.8815 Z110.4125 B44.469
N2952 X354.828 Z110.4682
N2953 X354.7744 Z110.524
N2954 X354.7209 Z110.5797 B44.491
N2955 X354.6673 Z110.6354
N2956 X354.6137 Z110.6911
N2957 X354.5601 Z110.7467 B44.514
N2958 X354.5064 Z110.8024
N2959 X354.4528 Z110.8581
N2960 X354.3991 Z110.9138 B44.536
N2961 X354.3454 Z110.9694
N2962 X354.2917 Z111.0251
N2963 X354.2379 Z111.0807 B44.558
N2964 X354.1842 Z111.1364
N2965 X354.1304 Z111.192
N2966 X354.0766 Z111.2477 B44.58
N2967 X354.0227 Z111.3033
N2968 X353.9689 Z111.3589
N2969 X353.915 Z111.4145 B44.603
N2970 X353.8611 Z111.4701
N2971 X353.8072 Z111.5257
N2972 X353.7533 Z111.5813 B44.625
N2973 X353.6993 Z111.6369
N2974 X353.6453 Z111.6925
N2975 X353.5914 Z111.7481 B44.647
N2976 X353.5373 Z111.8037
N2977 X353.4833 Z111.8593
N2978 X353.4292 Z111.9148 B44.67
N2979 X353.3752 Z111.9704
N2980 X353.3211 Z112.0259
N2981 X353.267 Z112.0815 B44.692
N2982 X353.2128 Z112.137
N2983 X353.1587 Z112.1926
N2984 X353.1045 Z112.2481 B44.714
N2985 X353.0503 Z112.3036
N2986 X352.996 Z112.3591
N2987 X352.9418 Z112.4147 B44.736
N2988 X352.8875 Z112.4702
N2989 X352.8333 Z112.5257
N2990 X352.779 Z112.5812 B44.759
N2991 X352.7246 Z112.6366
N2992 X352.6703 Z112.6921
N2993 X352.6159 Z112.7476 B44.781
N2994 X352.5615 Z112.8031
N2995 X352.5071 Z112.8586
N2996 X352.4527 Z112.914 B44.803
N2997 X352.3983 Z112.9695
N2998 X352.3438 Z113.0249
N2999 X352.2893 Z113.0804 B44.826
N3000 X352.2348 Z113.1358
N3001 X352.1803 Z113.1912
N3002 X352.1257 Z113.2467 B44.848
N3003 X352.0711 Z113.3021
N3004 X352.0165 Z113.3575
N3005 X351.9619 Z113.4129 B44.87
N3006 X351.9073 Z113.4683
N3007 X351.8527 Z113.5237
N3008 X351.798 Z113.5791 B44.892
N3009 X351.7433 Z113.6345
N3010 X351.6886 Z113.6899
N3011 X351.6339 Z113.7453 B44.915
N3012 X351.5791 Z113.8006
N3013 X351.5243 Z113.856
N3014 X351.4695 Z113.9114 B44.937
N3015 X351.4147 Z113.9667
N3016 X351.3599 Z114.0221
N3017 X351.3051 Z114.0774 B44.959
N3018 X351.2502 Z114.1328
N3019 X351.1953 Z114.1881
N3020 X351.1404 Z114.2434 B44.982
N3021 X351.0854 Z114.2987
N3022 X351.0305 Z114.3541
N3023 X350.9755 Z114.4094 B45.004
N3024 X350.9205 Z114.4647
N3025 X350.8655 Z114.52
N3026 X350.8105 Z114.5753 B45.026
N3027 X350.7554 Z114.6306
N3028 X350.7004 Z114.6858
N3029 X350.6453 Z114.7411 B45.048
N3030 X350.5902 Z114.7964
N3031 X350.535 Z114.8517
N3032 X350.4799 Z114.9069 B45.071
N3033 X350.4247 Z114.9622
N3034 X350.3695 Z115.0174
N3035 X350.3143 Z115.0727 B45.093
N3036 X350.2591 Z115.1279
N3037 X350.2038 Z115.1831
N3038 X350.1486 Z115.2384 B45.115
N3039 X350.0933 Z115.2936
N3040 X350.038 Z115.3488
N3041 X349.9826 Z115.404 B45.137
N3042 X349.9273 Z115.4592
N3043 X349.8719 Z115.5144
N3044 X349.8165 Z115.5696 B45.16
N3045 X349.7611 Z115.6248
N3046 X349.7057 Z115.68
N3047 X349.6503 Z115.7352 B45.182
N3048 X349.5948 Z115.7903
N3049 X349.5393 Z115.8455
N3050 X349.4838 Z115.9007 B45.204
N3051 X349.4283 Z115.9558
N3052 X349.3728 Z116.011
N3053 X349.3172 Z116.0661 B45.227
N3054 X349.2616 Z116.1212
N3055 X349.206 Z116.1764
N3056 X349.1504 Z116.2315 B45.249
N3057 X349.0948 Z116.2866
N3058 X349.0391 Z116.3417
N3059 X348.9834 Z116.3969 B45.271
N3060 X348.9277 Z116.452
N3061 X348.872 Z116.5071
N3062 X348.8163 Z116.5622 B45.293
N3063 X348.7605 Z116.6173
N3064 X348.7047 Z116.6723
N3065 X348.6793 Z116.6975 B45.297
N3066 X348.6539 Z116.7225 B45.3
N3067 X348.5775 Z116.7979 B45.32
N3068 X348.501 Z116.8733
N3069 X348.4245 Z116.9487 B45.341
N3070 X348.348 Z117.024
N3071 X348.2715 Z117.0994 B45.361
N3072 X348.1949 Z117.1747
N3073 X348.1183 Z117.25 B45.381
N3074 X348.0416 Z117.3253
N3075 X347.9649 Z117.4006 B45.402
N3076 X347.8882 Z117.4759
N3077 X347.8114 Z117.5511 B45.422
N3078 X347.7346 Z117.6264
N3079 X347.6578 Z117.7016 B45.442
N3080 X347.5809 Z117.7769
N3081 X347.504 Z117.8521 B45.463
N3082 X347.427 Z117.9273
N3083 X347.35 Z118.0025 B45.483
N3084 X347.273 Z118.0777
N3085 X347.1959 Z118.1529 B45.503
N3086 X347.1188 Z118.228
N3087 X347.0417 Z118.3032 B45.524
N3088 X346.9645 Z118.3784
N3089 X346.8873 Z118.4535 B45.544
N3090 X346.81 Z118.5286
N3091 X346.7327 Z118.6037 B45.564
N3092 X346.6554 Z118.6789
N3093 X346.578 Z118.754 B45.584
N3094 X346.5006 Z118.829
N3095 X346.4232 Z118.9041 B45.605
N3096 X346.3457 Z118.9792
N3097 X346.2682 Z119.0542 B45.625
N3098 X346.1907 Z119.1293
N3099 X346.1131 Z119.2043 B45.645
N3100 X346.0355 Z119.2793
N3101 X345.9578 Z119.3544 B45.666
N3102 X345.88 Z119.4294
N3103 X345.8023 Z119.5044 B45.686
N3104 X345.7246 Z119.5793
N3105 X345.6468 Z119.6543 B45.706
N3106 X345.569 Z119.7293
N3107 X345.4911 Z119.8042 B45.727
N3108 X345.4132 Z119.8792
N3109 X345.3353 Z119.9541 B45.747
N3110 X345.2573 Z120.029
N3111 X345.1793 Z120.1039 B45.767
N3112 X345.1012 Z120.1788
N3113 X345.0231 Z120.2537 B45.788
N3114 X344.945 Z120.3286
N3115 X344.8669 Z120.4035 B45.808
N3116 X344.7887 Z120.4783
N3117 X344.7104 Z120.5532 B45.828
N3118 X344.6322 Z120.628
N3119 X344.5539 Z120.7028 B45.848
N3120 X344.4755 Z120.7776
N3121 X344.3972 Z120.8524 B45.869
N3122 X344.3188 Z120.9272
N3123 X344.2403 Z121.002 B45.889
N3124 X344.1619 Z121.0768
N3125 X344.0834 Z121.1516 B45.909
N3126 X344.0048 Z121.2263
N3127 X343.9262 Z121.3011 B45.93
N3128 X343.8476 Z121.3758
N3129 X343.7689 Z121.4506 B45.95
N3130 X343.6902 Z121.5254
N3131 X343.6115 Z121.6 B45.97
N3132 X343.5328 Z121.6746
N3133 X343.4541 Z121.7493 B45.991
N3134 X343.3752 Z121.824
N3135 X343.2964 Z121.8987 B46.011
N3136 X343.2175 Z121.9733
N3137 X343.1386 Z122.048 B46.031
N3138 X343.0596 Z122.1226
N3139 X342.9806 Z122.1972 B46.051
N3140 X342.9016 Z122.2718
N3141 X342.8226 Z122.3464 B46.072
N3142 X342.7435 Z122.421
N3143 X342.6643 Z122.4956 B46.092
N3144 X342.5852 Z122.5702
N3145 X342.506 Z122.6447 B46.112
N3146 X342.4268 Z122.7193
N3147 X342.3475 Z122.7939 B46.133
N3148 X342.2681 Z122.8685
N3149 X342.1888 Z122.9429 B46.153
N3150 X342.1095 Z123.0174
N3151 X342.0302 Z123.0919 B46.173
N3152 X341.9507 Z123.1664
N3153 X341.8713 Z123.2409 B46.194
N3154 X341.7918 Z123.3153
N3155 X341.7123 Z123.3898 B46.214
N3156 X341.6327 Z123.4643
N3157 X341.5531 Z123.5387 B46.234
N3158 X341.4735 Z123.6131
N3159 X341.3938 Z123.6876 B46.254
N3160 X341.3141 Z123.762
N3161 X341.2344 Z123.8364 B46.275
N3162 X341.1546 Z123.9109
N3163 X341.0748 Z123.9852 B46.295
N3164 X340.9951 Z124.0595
N3165 X340.9152 Z124.1339 B46.315
N3166 X340.8353 Z124.2082
N3167 X340.7554 Z124.2826 B46.336
N3168 X340.6755 Z124.3569
N3169 X340.5955 Z124.4312 B46.356
N3170 X340.5155 Z124.5055
N3171 X340.4354 Z124.5798 B46.376
N3172 X340.3554 Z124.6541
N3173 X340.2753 Z124.7284 B46.396
N3174 X340.1951 Z124.8027
N3175 X340.1149 Z124.8769 B46.417
N3176 X340.0347 Z124.9512
N3177 X339.9545 Z125.0254 B46.437
N3178 X339.8742 Z125.0997
N3179 X339.7939 Z125.1739 B46.457
N3180 X339.7136 Z125.2481
N3181 X339.6333 Z125.3223 B46.478
N3182 X339.5529 Z125.3965
N3183 X339.4724 Z125.4707 B46.498
N3184 X339.392 Z125.5449
N3185 X339.3115 Z125.619 B46.518
N3186 X339.231 Z125.6932
N3187 X339.1504 Z125.7673 B46.539
N3188 X339.0699 Z125.8415
N3189 X338.9892 Z125.9156 B46.559
N3190 X338.9086 Z125.9897
N3191 X338.8279 Z126.0638 B46.579
N3192 X338.7472 Z126.1379
N3193 X338.6665 Z126.212 B46.599
N3194 X338.5857 Z126.2861
N3195 X338.5049 Z126.3602 B46.62
N3196 X338.4241 Z126.4342
N3197 X338.3433 Z126.5083 B46.64
N3198 X338.2624 Z126.5823
N3199 X338.1814 Z126.6564 B46.66
N3200 X338.1004 Z126.7304
N3201 X338.0195 Z126.8044 B46.681
N3202 X337.9385 Z126.8784
N3203 X337.8575 Z126.9523 B46.701
N3204 X337.7764 Z127.0263
N3205 X337.6952 Z127.1004 B46.721
N3206 X337.614 Z127.1744
N3207 X337.5329 Z127.2483 B46.741
N3208 X337.4518 Z127.3222
N3209 X337.3705 Z127.3961 B46.762
N3210 X337.2892 Z127.4701
N3211 X337.208 Z127.544 B46.782
N3212 X337.1268 Z127.6178
N3213 X337.0454 Z127.6917 B46.802
N3214 X336.9641 Z127.7656
N3215 X336.8827 Z127.8395 B46.822
N3216 X336.8013 Z127.9134
N3217 X336.7198 Z127.9872 B46.843
N3218 X336.6383 Z128.0611
N3219 X336.5568 Z128.1349 B46.863
N3220 X336.4752 Z128.2088
N3221 X336.3936 Z128.2826 B46.883
N3222 X336.3121 Z128.3564
N3223 X336.2305 Z128.4301 B46.904
N3224 X336.1488 Z128.5039
N3225 X336.0671 Z128.5777 B46.924
N3226 X335.9854 Z128.6515
N3227 X335.9037 Z128.7253 B46.944
N3228 X335.8219 Z128.799
N3229 X335.7401 Z128.8727 B46.964
N3230 X335.6582 Z128.9465
N3231 X335.5764 Z129.0202 B46.985
N3232 X335.4945 Z129.0939
N3233 X335.4125 Z129.1677 B47.005
N3234 X335.3305 Z129.2414
N3235 X335.2486 Z129.3151 B47.025
N3236 X335.1667 Z129.3887
N3237 X335.0846 Z129.4624 B47.045
N3238 X335.0026 Z129.536
N3239 X334.9205 Z129.6097 B47.066
N3240 X334.8384 Z129.6833
N3241 X334.7562 Z129.7569 B47.086
N3242 X334.6741 Z129.8306
N3243 X334.5919 Z129.9042 B47.106
N3244 X334.5096 Z129.9778
N3245 X334.4273 Z130.0514 B47.127
N3246 X334.345 Z130.125
N3247 X334.2628 Z130.1986 B47.147
N3248 X334.1805 Z130.2721
N3249 X334.0981 Z130.3457 B47.167
N3250 X334.0157 Z130.4192
N3251 X333.9333 Z130.4927 B47.187
N3252 X333.8509 Z130.5663
N3253 X333.7683 Z130.6398 B47.208
N3254 X333.6858 Z130.7134
N3255 X333.6033 Z130.7869 B47.228
N3256 X333.5208 Z130.8603
N3257 X333.4382 Z130.9338 B47.248
N3258 X333.3556 Z131.0072
N3259 X333.273 Z131.0807 B47.268
N3260 X333.1903 Z131.1542
N3261 X333.1076 Z131.2277 B47.289
N3262 X333.0248 Z131.3011
N3263 X332.9421 Z131.3745 B47.309
N3264 X332.8594 Z131.4479
N3265 X332.7766 Z131.5213 B47.329
N3266 X332.6938 Z131.5947
N3267 X332.6109 Z131.6681 B47.349
N3268 X332.5281 Z131.7415
N3269 X332.4452 Z131.8149 B47.37
N3270 X332.3622 Z131.8882
N3271 X332.2793 Z131.9616 B47.39
N3272 X332.1963 Z132.0349
N3273 X332.1133 Z132.1083 B47.41
N3274 X332.0303 Z132.1816
N3275 X331.9472 Z132.2549 B47.431
N3276 X331.8641 Z132.3282
N3277 X331.781 Z132.4015 B47.451
N3278 X331.6979 Z132.4748
N3279 X331.6147 Z132.5481 B47.471
N3280 X331.5316 Z132.6214
N3281 X331.4483 Z132.6947 B47.491
N3282 X331.365 Z132.768
N3283 X331.2818 Z132.8412 B47.512
N3284 X331.1986 Z132.9144
N3285 X331.1152 Z132.9876 B47.532
N3286 X331.0319 Z133.0608
N3287 X330.9485 Z133.1341 B47.552
N3288 X330.8651 Z133.2073
N3289 X330.7817 Z133.2805 B47.572
N3290 X330.6983 Z133.3536
N3291 X330.6148 Z133.4268 B47.593
N3292 X330.5314 Z133.5
N3293 X330.4478 Z133.5731 B47.613
N3294 X330.3643 Z133.6463
N3295 X330.2807 Z133.7195 B47.633
N3296 X330.197 Z133.7927
N3297 X330.1135 Z133.8657 B47.653
N3298 X330.0299 Z133.9388
N3299 X329.9462 Z134.0119 B47.674
N3300 X329.8625 Z134.085
N3301 X329.7788 Z134.1581 B47.694
N3302 X329.695 Z134.2313
N3303 X329.6113 Z134.3043 B47.714
N3304 X329.5276 Z134.3773
N3305 X329.4438 Z134.4504 B47.734
N3306 X329.3599 Z134.5234
N3307 X329.2761 Z134.5964 B47.755
N3308 X329.1922 Z134.6695
N3309 X329.1083 Z134.7425 B47.775
N3310 X329.0244 Z134.8155
N3311 X328.9404 Z134.8885 B47.795
N3312 X328.8564 Z134.9615
N3313 X328.7724 Z135.0345 B47.815
N3314 X328.6884 Z135.1074
N3315 X328.6044 Z135.1804 B47.836
N3316 X328.5203 Z135.2534
N3317 X328.4362 Z135.3263 B47.856
N3318 X328.3521 Z135.3992
N3319 X328.268 Z135.4722 B47.876
N3320 X328.1838 Z135.5451
N3321 X328.0996 Z135.618 B47.896
N3322 X328.0154 Z135.6909
N3323 X327.9312 Z135.7638 B47.917
N3324 X327.8469 Z135.8367
N3325 X327.7626 Z135.9096 B47.937
N3326 X327.6783 Z135.9824
N3327 X327.594 Z136.0553 B47.957
N3328 X327.5097 Z136.1282
N3329 X327.4253 Z136.201 B47.977
N3330 X327.3409 Z136.2738
N3331 X327.2565 Z136.3467 B47.997
N3332 X327.172 Z136.4195
N3333 X327.0876 Z136.4923 B48.018
N3334 X327.0031 Z136.5651
N3335 X326.9186 Z136.6379 B48.038
N3336 X326.8341 Z136.7107
N3337 X326.7495 Z136.7835 B48.058
N3338 X326.6648 Z136.8563
N3339 X326.5803 Z136.929 B48.078
N3340 X326.4957 Z137.0017
N3341 X326.4111 Z137.0745 B48.099
N3342 X326.3264 Z137.1472
N3343 X326.2418 Z137.2199 B48.119
N3344 X326.1571 Z137.2926
N3345 X326.0723 Z137.3653 B48.139
N3346 X325.9876 Z137.438
N3347 X325.9028 Z137.5107 B48.159
N3348 X325.818 Z137.5834
N3349 X325.7332 Z137.6561 B48.18
N3350 X325.6484 Z137.7287
N3351 X325.5635 Z137.8014 B48.2
N3352 X325.4786 Z137.8741
N3353 X325.3937 Z137.9467 B48.22
N3354 X325.3088 Z138.0193
N3355 X325.2239 Z138.0919 B48.24
N3356 X325.1389 Z138.1646
N3357 X325.0539 Z138.2372 B48.261
N3358 X324.9689 Z138.3098
N3359 X324.8839 Z138.3824 B48.281
N3360 X324.7989 Z138.4549
N3361 X324.7137 Z138.5276 B48.301
N3362 X324.6285 Z138.6002
N3363 X324.5435 Z138.6727 B48.321
N3364 X324.4585 Z138.7452
N3365 X324.3733 Z138.8177 B48.341
N3366 X324.2881 Z138.8903
N3367 X324.2029 Z138.9628 B48.362
N3368 X324.1177 Z139.0353
N3369 X324.0325 Z139.1078 B48.382
N3370 X323.9472 Z139.1803
N3371 X323.862 Z139.2528 B48.402
N3372 X323.7767 Z139.3253
N3373 X323.6914 Z139.3977 B48.422
N3374 X323.606 Z139.4702
N3375 X323.5206 Z139.5427 B48.443
N3376 X323.4352 Z139.6152
N3377 X323.3498 Z139.6876 B48.463
N3378 X323.2645 Z139.76
N3379 X323.1791 Z139.8324 B48.483
N3380 X323.0936 Z139.9048
N3381 X323.0081 Z139.9772 B48.503
N3382 X322.9226 Z140.0496
N3383 X322.8371 Z140.122 B48.523
N3384 X322.7516 Z140.1944
N3385 X322.666 Z140.2668 B48.544
N3386 X322.5805 Z140.3392
N3387 X322.4949 Z140.4115 B48.564
N3388 X322.4093 Z140.4839
N3389 X322.3236 Z140.5562 B48.584
N3390 X322.238 Z140.6286
N3391 X322.1523 Z140.7009 B48.604
N3392 X322.0666 Z140.7732
N3393 X321.9809 Z140.8456 B48.624
N3394 X321.8951 Z140.9179
N3395 X321.8094 Z140.9902 B48.645
N3396 X321.7237 Z141.0624
N3397 X321.6379 Z141.1347 B48.665
N3398 X321.5521 Z141.2069
N3399 X321.4663 Z141.2792 B48.685
N3400 X321.3805 Z141.3514
N3401 X321.2946 Z141.4237 B48.705
N3402 X321.2087 Z141.4959
N3403 X321.1228 Z141.5682 B48.725
N3404 X321.0369 Z141.6404
N3405 X320.951 Z141.7126 B48.746
N3406 X320.8651 Z141.7848
N3407 X320.7791 Z141.857 B48.766
N3408 X320.6931 Z141.9292
N3409 X320.6071 Z142.0014 B48.786
N3410 X320.5211 Z142.0736
N3411 X320.435 Z142.1457 B48.806
N3412 X320.349 Z142.2179
N3413 X320.2629 Z142.29 B48.826
N3414 X320.1768 Z142.3622
N3415 X320.0907 Z142.4343 B48.847
N3416 X320.0046 Z142.5064
N3417 X319.9184 Z142.5786 B48.867
N3418 X319.8323 Z142.6507
N3419 X319.7461 Z142.7228 B48.887
N3420 X319.6599 Z142.7949
N3421 X319.5737 Z142.867 B48.907
N3422 X319.4875 Z142.939
N3423 X319.4488 Z142.9714 B48.912
N3424 X319.4102 Z143.0036 B48.916
N3425 X319.3522 Z143.0521 B48.93
N3426 X319.2941 Z143.1006
N3427 X319.2361 Z143.149 B48.943
N3428 X319.1781 Z143.1975
N3429 X319.1201 Z143.2459 B48.957
N3430 X319.062 Z143.2943
N3431 X319.004 Z143.3428 B48.971
N3432 X318.9459 Z143.3912
N3433 X318.8879 Z143.4396 B48.984
N3434 X318.8298 Z143.488
N3435 X318.7717 Z143.5364 B48.998
N3436 X318.7136 Z143.5848
N3437 X318.6556 Z143.6332 B49.011
N3438 X318.5975 Z143.6816
N3439 X318.5394 Z143.73 B49.025
N3440 X318.4812 Z143.7784
N3441 X318.4231 Z143.8268 B49.038
N3442 X318.365 Z143.8752
N3443 X318.3069 Z143.9236 B49.052
N3444 X318.2487 Z143.972
N3445 X318.1906 Z144.0203 B49.066
N3446 X318.1324 Z144.0687
N3447 X318.0743 Z144.1171 B49.079
N3448 X318.0161 Z144.1654
N3449 X317.958 Z144.2138 B49.093
N3450 X317.8998 Z144.2621
N3451 X317.8416 Z144.3105 B49.106
N3452 X317.7834 Z144.3588
N3453 X317.7252 Z144.4072 B49.12
N3454 X317.667 Z144.4555
N3455 X317.6088 Z144.5038 B49.133
N3456 X317.5506 Z144.5521
N3457 X317.4924 Z144.6005 B49.147
N3458 X317.4341 Z144.6488
N3459 X317.3759 Z144.6971 B49.161
N3460 X317.3177 Z144.7454
N3461 X317.2594 Z144.7937 B49.174
N3462 X317.2012 Z144.842
N3463 X317.1429 Z144.8903 B49.188
N3464 X317.0847 Z144.9386
N3465 X317.0264 Z144.9869 B49.201
N3466 X316.9681 Z145.0352
N3467 X316.9098 Z145.0835 B49.215
N3468 X316.8515 Z145.1318
N3469 X316.7932 Z145.18 B49.228
N3470 X316.7349 Z145.2283
N3471 X316.6766 Z145.2766 B49.242
N3472 X316.6183 Z145.3248
N3473 X316.56 Z145.3731 B49.255
N3474 X316.5017 Z145.4214
N3475 X316.4434 Z145.4696 B49.269
N3476 X316.385 Z145.5179
N3477 X316.3267 Z145.5661 B49.283
N3478 X316.2683 Z145.6143
N3479 X316.21 Z145.6626 B49.296
N3480 X316.1516 Z145.7108
N3481 X316.0933 Z145.759 B49.31
N3482 X316.0349 Z145.8073
N3483 X315.9765 Z145.8555 B49.323
N3484 X315.9181 Z145.9037
N3485 X315.8598 Z145.9519 B49.337
N3486 X315.8014 Z146.0001
N3487 X315.743 Z146.0483 B49.35
N3488 X315.6846 Z146.0966
N3489 X315.6262 Z146.1448 B49.364
N3490 X315.5678 Z146.193
N3491 X315.5093 Z146.2412 B49.377
N3492 X315.4509 Z146.2893
N3493 X315.3925 Z146.3375 B49.391
N3494 X315.3341 Z146.3857
N3495 X315.2756 Z146.4339 B49.405
N3496 X315.2172 Z146.4821
N3497 X315.1587 Z146.5302 B49.418
N3498 X315.1003 Z146.5784
N3499 X315.0418 Z146.6266 B49.432
N3500 X314.9834 Z146.6747
N3501 X314.9249 Z146.7229 B49.445
N3502 X314.8664 Z146.771
N3503 X314.808 Z146.8192 B49.459
N3504 X314.7495 Z146.8673
N3505 X314.691 Z146.9155 B49.472
N3506 X314.6325 Z146.9636
N3507 X314.574 Z147.0118 B49.486
N3508 X314.5155 Z147.0599
N3509 X314.457 Z147.108 B49.499
N3510 X314.3985 Z147.1562
N3511 X314.34 Z147.2043 B49.513
N3512 X314.2815 Z147.2524
N3513 X314.223 Z147.3005 B49.526
N3514 X314.1644 Z147.3486
N3515 X314.1059 Z147.3967 B49.54
N3516 X314.0474 Z147.4449
N3517 X313.9889 Z147.493 B49.553
N3518 X313.9303 Z147.5411
N3519 X313.8718 Z147.5892 B49.567
N3520 X313.8132 Z147.6373
N3521 X313.7547 Z147.6853 B49.581
N3522 X313.6961 Z147.7334
N3523 X313.6375 Z147.7815 B49.594
N3524 X313.579 Z147.8296
N3525 X313.5204 Z147.8777 B49.608
N3526 X313.4618 Z147.9257
N3527 X313.4033 Z147.9738 B49.621
N3528 X313.3447 Z148.0219
N3529 X313.2861 Z148.0699 B49.635
N3530 X313.2275 Z148.118
N3531 X313.1689 Z148.1661 B49.648
N3532 X313.1103 Z148.2141
N3533 X313.0517 Z148.2622 B49.662
N3534 X312.9931 Z148.3102
N3535 X312.9345 Z148.3583 B49.675
N3536 X312.8759 Z148.4063
N3537 X312.8173 Z148.4544 B49.689
N3538 X312.7587 Z148.5024
N3539 X312.7 Z148.5504 B49.702
N3540 X312.6414 Z148.5985
N3541 X312.5828 Z148.6465 B49.716
N3542 X312.5242 Z148.6945
N3543 X312.4655 Z148.7425 B49.729
N3544 X312.4069 Z148.7905
N3545 X312.3482 Z148.8386 B49.743
N3546 X312.2896 Z148.8866
N3547 X312.2309 Z148.9346 B49.756
N3548 X312.1723 Z148.9826
N3549 X312.1136 Z149.0306 B49.77
N3550 X312.055 Z149.0786
N3551 X311.9963 Z149.1266 B49.784
N3552 X311.9377 Z149.1746
N3553 X311.879 Z149.2226 B49.797
N3554 X311.8203 Z149.2706
N3555 X311.7616 Z149.3185 B49.811
N3556 X311.703 Z149.3665
N3557 X311.6443 Z149.4145 B49.824
N3558 X311.5856 Z149.4625
N3559 X311.5269 Z149.5104 B49.838
N3560 X311.4682 Z149.5584
N3561 X311.4096 Z149.6064 B49.851
N3562 X311.3509 Z149.6544
N3563 X311.2922 Z149.7023 B49.865
N3564 X311.2335 Z149.7503
N3565 X311.1748 Z149.7982 B49.878
N3566 X311.1161 Z149.8462
N3567 X311.0574 Z149.8941 B49.892
N3568 X310.9987 Z149.9421
N3569 X310.94 Z149.99 B49.905
N3570 X310.8812 Z150.038
N3571 X310.8225 Z150.0859 B49.919
N3572 X310.7638 Z150.1338
N3573 X310.7051 Z150.1818 B49.932
N3574 X310.6464 Z150.2297
N3575 X310.5876 Z150.2776 B49.946
N3576 X310.5289 Z150.3256
N3577 X310.4702 Z150.3735 B49.959
N3578 X310.4115 Z150.4214
N3579 X310.3527 Z150.4693 B49.973
N3580 X310.294 Z150.5172
